!!!!SEGMENT: pl-wtm--r-2043--pc0_smietanski-emil-wladyslaw--rondo-pour-piano-pc0.krn
!!!cenid: 18xx:2028
!!!COM: Śmietański, Emil Władysław
!!!COM-rism: pe50041781
!!!CDT: 1845-1886
!!!CNT: Polish
!!!OTL: Rondo pour piano
!!!PDT:
!!!AGN: Secular
!!!SMS-siglum: PL-Wtm
!!!SMS-shelfmark: R 2043
!!!NIFC-rismID: 1001112689
!!!URL-scan: http://repozytorium.nifc.pl/skany/pl-wtm-nut--r2043
!!!ONB-nifc:
!!!SMS-variant:
!!!SMS-altvar:
**kern	**kern	**fing	**dynam
*part2	*part1	*	*part1
*staff2	*staff1	*	*
*I"Piano	*I"Piano	*	*
*clefF4	*clefG2	*	*
*k[b-e-a-]	*k[b-e-a-]	*	*
*E-:	*E-:	*	*
*M6/8	*M6/8	*	*
=1	=1	=1	=1
*2\right	*2\right	*	*
!	!LO:TX:a:i:t=Rondo.	!	!
!	!LO:TX:a:i:t=Alegretto.	!	!LO:DY:b
!LO:TX:t=P:problem:kaudy z różnych stron	!LO:TX:t=P:problem:kaudy z różnych stron	!	!
8BB-\L	4.b-\	.	p
8d 8B- 8A-\	.	.	.
8dJ 8B- 8A-\	.	.	.
*tremolo	*	*	*
!LO:TX:t=P:problem:w calym utworze liczne poprawki olowkowe	!	!	!
8dL 8B- 8A-\	16cc\LL	.	.
.	16b-\	.	.
8d 8B- 8A-\	16an\	.	.
.	16b-\	.	.
8dJ 8B- 8A-\	16cc\	.	.
.	16dd\JJ	.	.
*Xtremolo	*	*	*
=2	=2	=2	=2
8EE-\L	4ee-\	.	.
8e- 8B- 8G\	.	.	.
8e-J 8B- 8G\	8gg\	.	.
*tremolo	*	*	*
8e-L 8B- 8G\	4.b-\	.	.
8e- 8B- 8G\	.	.	.
8e-J 8B- 8G\	.	.	.
*Xtremolo	*	*	*
=3	=3	=3	=3
8AA-\L	4cc\	.	.
8f 8c 8A-\	.	.	.
8fJ 8c 8A-\	16bn\LL	.	.
.	16cc\JJ	.	.
8fL 8c 8A-\	16ff\LL	.	.
.	16ee-\	.	.
8f 8c 8A-\	16dd\	.	.
.	16cc\	.	.
8f#XJ 8c 8A-\	16bn\	.	.
.	16cc\JJ	.	.
=4	=4	=4	=4
8GG\L	4.dd\	.	.
8Bn 8G 8F\	.	.	.
8BJ 8G 8F\	.	.	.
*tremolo	*	*	*
8BL 8G 8F\	8g\	.	.
8B 8G 8F\	8r	.	.
8BJ 8G 8F\	8r	.	.
*Xtremolo	*	*	*
=5	=5	=5	=5
8C\L	8g\L	.	.
8c 8G 8E-\	16f#X\L	.	.
.	16g\J	.	.
8cJ 8G 8E-\	8cc\J	.	.
*tremolo	*	*	*
8cL 8G 8E-\	16bn\LL	.	.
.	16cc\	.	.
8c 8G 8E-\	16dd\	.	.
.	16cc\	.	.
8cJ 8G 8E-\	16b\	.	.
.	16cc\JJ	.	.
*Xtremolo	*	*	*
=6	=6	=6	=6
8AA-\L	8cc\L	.	.
8e- 8c 8A-\	16bn\L	.	.
.	16cc\J	.	.
8e-J 8c 8A-\	8ee-\J	.	.
*tremolo	*	*	*
8e-L 8c 8A-\	16dd\LL	.	.
.	16ee-\	.	.
8e- 8c 8A-\	16ff\	.	.
.	16ee-\	.	.
8e-J 8c 8A-\	16dd\	.	.
.	16ee-\JJ	.	.
*Xtremolo	*	*	*
!!LO:LB:g=original
=7	=7	=7	=7
8FF\L	4gg\	.	.
8e- 8An\	.	.	.
8e-J 8A\	16ff\LL	.	.
.	16ee-\JJ	.	.
*tremolo	*	*	*
8fL 8e- 8A\	16dd\LL	.	.
.	16cc\	.	.
8f 8e- 8A\	16bn\	.	.
.	16cc\	.	.
8fJ 8e- 8A\	16ff\	.	.
.	16an\JJ	.	.
*Xtremolo	*	*	*
=8	=8	=8	=8
8BB-\L	16an\LL	.	.
.	16b-\	.	.
8d 8B- 8F\	16a\	.	.
.	16b-\	.	.
8e-J 8An 8G-X\	16dd\	.	.
.	16cc\JJ	.	.
*tremolo	*	*	*
8dL 8B- 8A-X 8F\	8ccM>\L	.	.
8d 8B- 8A- 8F\	8b-\	.	.
8dJ 8B- 8A- 8F\	8b-\J	.	.
*Xtremolo	*	*	*
=9	=9	=9	=9
4.B- 4.BB-\	8r	.	.
.	8b-L 8a- 8d\	.	.
.	8b-J 8a- 8d\	.	.
16c\LL	8r	.	.
16B-\	.	.	.
16An\	8b-L 8a- 8d\	.	.
16B-\	.	.	.
16c\	8b-J 8a- 8d\	.	.
16d\JJ	.	.	.
=10	=10	=10	=10
4e- 4E-\	8r	.	.
.	8b-L 8g 8e-\	.	.
8g\	8b-J 8g 8e-\	.	.
4.B-\	8r	.	.
.	8b-L 8g 8e-\	.	.
.	8b-J 8g 8e-\	.	.
=11	=11	=11	=11
4c 4A-\	8r	.	.
.	8ccL 8a- 8e-\	.	.
16Bn\LL	8ccJ 8a- 8e-\	.	.
16c\JJ	.	.	.
16f\LL	8r	.	.
16e-\	.	.	.
16d\	8ccL 8a- 8f\	.	.
16c\	.	.	.
16B\	8ccJ 8a- 8f\	.	.
16c\JJ	.	.	.
=12	=12	=12	=12
4.d 4.G\	8r	.	.
.	8bnL 8g\	.	.
.	8bJ 8g\	.	.
8G\	8r	.	.
8r	8bL 8g\	.	.
8r	8bJ 8g\	.	.
!!LO:LB:g=original
=13	=13	=13	=13
8GL 8C\	8r	.	.
16F#X\L	8ccL 8g 8e-\	.	.
16G\J	.	.	.
8c\J	8ccJ 8g 8e-\	.	.
16Bn\LL	8r	.	.
16c\	.	.	.
16d\	8ccL 8g 8e-\	.	.
16c\	.	.	.
16B\	8ccJ 8g 8e-\	.	.
16c\JJ	.	.	.
=14	=14	=14	=14
8cL 8A-\	8r	.	.
16Bn\L	8ee-L 8cc 8a-\	.	.
16c\J	.	.	.
8e-\J	8ee-J 8cc 8a-\	.	.
16d\LL	8r	.	.
16e-\	.	.	.
16f\	8ee-L 8cc 8a-\	.	.
16e-\	.	.	.
16d\	8ee-J 8cc 8a-\	.	.
16e-\JJ	.	.	.
=15	=15	=15	=15
8gL 8B-\	8r	.	.
16f\L	8ee-L 8b- 8g\	.	.
16e-\	.	.	.
16d\	8ee-J 8b- 8g\	.	.
16c\JJ	.	.	.
16cLL 16BB-\	8r	.	.
16B-\	.	.	.
16An\	8ffL 8b- 8a-\	.	.
16B-\	.	.	.
16c\	8ffJ 8b- 8a-\	.	.
16d\JJ	.	.	.
=16	=16	=16	=16
4.f 4.E-\	8r	.	.
.	8ddL 8b- 8a-\	.	.
.	8ddJ 8b- 8a-\	.	.
8e-\	8ee- 8b- 8g\	.	.
8r	8r	.	.
8r	8r	.	.
=17	=17	=17	=17
!	!	!	!LO:DY:b
4.G 4.E- 4.BB- 4.EE-\	8ee-L 8b- 8g 8e-\	.	f
.	16gg\L	.	.
.	16ee-\	.	.
.	16b-\	.	.
.	16g\JJ	.	.
8G\L	4e- 4B-/	.	.
8E-\	.	.	.
8C\J	8en 8B-/	.	.
=18	=18	=18	=18
8FF\L	8fL 8An/	.	.
.	8qg\	.	.
8C\	16f/L	.	.
.	16en/	.	.
8GJ 8BB-\	16f 16d/	.	.
.	16g/JJ	.	.
8E-\L	8e 8G/	.	.
8BB-\	8r	.	.
8EE-\J	8r	.	.
!!LO:LB:g=original
=19	=19	=19	=19
4.G 4.E- 4.BB- 4.EE-\	8ee-L 8b- 8g 8e-\	.	.
.	16bb-\L	.	.
.	16gg\	.	.
.	16ee-\	.	.
.	16b-\JJ	.	.
8B-\L	4g 4d/	.	.
8G\	.	.	.
8En\J	8g#X/	.	.
=20	=20	=20	=20
8AAn\L	8anL 8c#X/	.	.
.	8qb-\	.	.
8En\	16a/L	.	.
.	16g#X/	.	.
8cJ 8D\	16a 16f#X/	.	.
.	16b-/JJ	.	.
8B-\L	8g# 8d/	.	.
8D\	8r	.	.
8GG\J	8r	.	.
=21	=21	=21	=21
4.B- 4.D 4.GG\	8ddL 8b- 8g 8d\	.	.
.	16ddd\L	.	.
.	16bb-\	.	.
.	16gg\	.	.
.	16dd\JJ	.	.
8d\L	4b- 4f\	.	.
8B-\	.	.	.
8G\J	8bn 8f\	.	.
=22	=22	=22	=22
8C\L	8ccL 8en\	.	.
.	8qdd\	.	.
8G\	16cc\L	.	.
.	16bn\	.	.
8e-J 8F\	16cc 16an\	.	.
.	16dd\JJ	.	.
8B-\L	8bL 8d\	.	.
.	8qe-X/	.	.
8BB-\	16d\L	.	.
.	16c#X\	.	.
8B-\J	16d\	.	.
.	16e-y\JJ	.	.
=23	=23	=23	=23
8F#X\L	8anL 8c\	.	.
.	8qb-/	.	.
8D\	16a\L	.	.
.	16g#X\	.	.
8F#\J	16a\	.	.
.	16b-\JJ	.	.
8G\L	8g#L 8B-/	.	.
.	16qc\	.	.
8GG\	16B-/L	.	.
.	16An/	.	.
8G\J	16B-/	.	.
.	16c/JJ	.	.
!!LO:LB:g=original
=24	=24	=24	=24
8D\L	8fL 8A-X/	.	.
.	8qg\	.	.
8BB-\	16f/L	.	.
.	16en/	.	.
8D\J	16f 16d/	.	.
.	16g/JJ	.	.
8E-\L	8eL 8G/	.	.
.	8qA-\	.	.
8EE-\	16G/L	.	.
.	16F#X/	.	.
8EEn\J	16d 16G/	.	.
.	16B-/JJ	.	.
=25	=25	=25	=25
*	*	*^	*
8FF\L	8c 8An/	.	.	.
8An 8F\	8r	.	.	.
8AJ 8F\	[<8f/	.	.	.
8AL 8F\	16f/LL]	.	.	.
.	16F/	.	2	.
8A 8F\	16An/	.	1	.
.	16c/	.	.	.
8AJ 8F\	16f/	.	.	.
.	16a-/JJ	.	.	.
*	*	*v	*v	*
=26	=26	=26	=26
8fL 8Bn 8F\	16g\LL	.	.
.	16dd\	.	.
.	8qeen/	.	.
8f 8B 8F\	16dd\	.	.
.	16cc#X\	.	.
8fJ 8B 8F\	16dd\	.	.
.	16gg\JJ	.	.
*tremolo	*	*	*
8enL 8B-X 8F\	16cc#\LL	.	.
.	16gg\	.	.
.	8qaan/	.	.
8e 8B- 8F\	16gg\	.	.
.	16ff#X\	.	.
8eJ 8B- 8F\	16gg\	.	.
.	16ccc\JJ	.	.
*Xtremolo	*	*	*
=27	=27	=27	=27
8FF\L	8ff\	.	.
8f 8An 8F\	8r	.	.
8fJ 8A 8F\	[>8ff\	.	.
8fL 8A 8F\	16ff\LL]	.	.
.	16f\	.	.
*clefG2	*	*	*
8an 8f\	16an\	.	.
.	16cc\	.	.
8aJ 8f\	16ff\	.	.
.	16aan\JJ	.	.
=28	=28	=28	=28
*tremolo	*	*	*
8ffL 8bn 8f\	16gg\LL	.	.
.	16ddd\	.	.
.	8qeeen/	.	.
8ff 8b 8f\	16ddd\	.	.
.	16ccc#X\	.	.
8ffJ 8b 8f\	16ddd\	.	.
.	16ggg\JJ	.	.
*	*8va	*	*
8eenL 8b-X 8f\	16ccc#\LL	.	.
.	16ggg\	.	.
.	8qaaan/	.	.
8ee 8b- 8f\	16ggg\	.	.
.	16fff#X\	.	.
8eeJ 8b- 8f\	16ggg\	.	.
.	16cccc#\JJ	.	.
*Xtremolo	*X8va	*	*
!!LO:PB:g=original
=29	=29	=29	=29
*clefG2	*	*	*
4.ff 4.an 4.f\	8fff\L	.	.
.	8qggg/	.	.
.	16fff\L	.	.
.	16eeen\	.	.
.	16fff\	.	.
.	16fff#X\JJ	.	.
8r	16ggg\LL	.	.
.	16eee-X\	.	.
.	8qddd/	.	.
8ffL 8ee-\	16ccc\	.	.
.	16bbn\	.	.
8aanJ 8ff\	16ccc\	.	.
.	16ddd\JJ	.	.
=30	=30	=30	=30
8r	16eee-\LL	.	.
.	16ccc\	.	.
.	8qbb-X/	.	.
8ee-L 8cc\	16aan\	.	.
.	16gg#X\	.	.
8ffJ 8ee-\	16aa\	.	.
.	16bb-\JJ	.	.
8r	16ccc\LL	.	.
.	16aa\	.	.
.	8qgg#/	.	.
8ccL 8an\	16ff\	.	.
.	16een\	.	.
8ee-J 8cc\	16ff\	.	.
.	16ff#X\JJ	.	.
=31	=31	=31	=31
8r	16gg\LL	.	.
.	16ee-\	.	.
.	8qdd/	.	.
8fL 8e-/	16cc\	.	.
.	16bn\	.	.
8anJ 8f/	16cc\	.	.
.	16dd\JJ	.	.
8r	16ee-\LL	.	.
.	16cc\	.	.
.	8qb-X/	.	.
8e-L 8c/	16an\	.	.
.	16g#X\	.	.
8fJ 8e-/	16a\	.	.
.	16b-X\JJ	.	.
=32	=32	=32	=32
8r	16cc\LL	.	.
.	16an\	.	.
.	16qqg/	.	.
8cL 8An/	16f\	.	.
.	16en\	.	.
8e-J 8c/	16f\	.	.
.	16f#X\JJ	.	.
8r	16g\LL	.	.
.	16e-X\	.	.
*clefF4	*	*	*
.	16qd/	.	.
8FL 8E-\	16c\	.	.
.	16Bn\	.	.
8AnJ 8F\	16c\	.	.
.	16d\JJ	.	.
=33	=33	=33	=33
16r	16e-/LL	.	.
16FF\LL	16F/	.	.
16E-\	16An/	.	.
16F\	16c/	.	.
16An\	16f/	.	.
16c\JJ	16an/JJ	.	.
*clefG2	*	*	*
16e-/LL	16cc/LL	.	.
16c/	16a/	.	.
16e-/	16cc/	.	.
16an/	16ff/	.	.
16cc/	16aan/	.	.
16ee-/JJ	16ccc/JJ	.	.
!!LO:LB:g=original
=34	=34	=34	=34
*clefG2	*	*	*
4.cc 4.f\	4.eee- 4.aan\	.	.
4r	4f/	.	.
8r	8dd/	.	.
*clefF4	*	*	*
=35	=35	=35	=35
*^	*^	*	*
!	!	!	!	!	!LO:DY:b
8D/L	2.BB-\	4.dd/	[<2.f\	.	p
8F/	.	.	.	.	.
8B-/J	.	.	.	.	.
8E-/L	.	8cc/L	.	.	.
8F/	.	8g/	.	.	.
8c/J	.	8an/J	.	.	.
=36	=36	=36	=36	=36	=36
8D/L	2.BB-\	4.b-/	4.f\]	.	.
8F/	.	.	.	.	.
8B-/J	.	.	.	.	.
8D/L	.	8f/L	8rcyy	.	.
8F/	.	8b-/	8rcyy	.	.
8B-/J	.	8dd/J	8rcyy	.	.
*	*	*v	*v	*	*
=37	=37	=37	=37	=37
8C/L	2.FF\	4ff 4an\	.	.
8F/	.	.	.	.
8An/J	.	8ff\	.	.
8C/L	.	8ggL 8b-\	.	.
8G/	.	8dd\	.	.
8B-/J	.	8een\J	.	.
=38	=38	=38	=38	=38
8C/L	2.FF\	4.ff 4.an\	.	.
8F/	.	.	.	.
8An/J	.	.	.	.
8E-/L	.	16en\LL	.	.
.	.	16f\	.	.
8F/	.	16g\	.	.
.	.	16a\	.	.
8A/J	.	16b-\	.	.
.	.	16cc\JJ	.	.
=39	=39	=39	=39	=39
*	*	*^	*	*
8D/L	2.BB-\	4dd/	[<2.f\	.	.
8F/	.	.	.	.	.
8B-/J	.	8dd/	.	.	.
8E-/L	.	8cc/L	.	.	.
8F/	.	8g/	.	.	.
8c/J	.	8an/J	.	.	.
*v	*v	*	*	*	*
=40	=40	=40	=40	=40
8DL 8BB-\	4b-/	4.f\]	.	.
8F\	.	.	.	.
8B-\J	8b-/	.	.	.
!	!	!LO:TX:b:t=P:problem:brak rozpoczęcia łuku	!	!
8CL 8DD/	8an/L	(<4.c\	.	.
8D/	8en/	.	.	.
8F#X/J	8f#X/J	.	.	.
!!LO:LB:g=original
=41	=41	=41	=41	=41
8CL 8EE-\	8g/L	4B-\)	.	.
8E-\	16f#X/L	.	.	.
.	16g/J	.	.	.
8G\J	8ee-/J	8rcyy	.	.
8E-L 8FF\	4dd 4an/	8rcyy	.	.
8F\	.	8rcyy	.	.
8An\J	8cc/	8rcyy	.	.
*	*v	*v	*	*
=42	=42	=42	=42
4.B- 4.D 4.BB-\	16b-\LL	.	.
.	16f\	.	.
.	16g\	.	.
.	16an\	.	.
.	16b-\	.	.
.	16cc\JJ	.	.
4r	16dd\LL	.	.
.	16ee-\	.	.
.	16een\	.	.
.	16ff\	.	.
8r	16ee\	.	.
.	16ff\JJ	.	.
=43	=43	=43	=43
16BB-\LL	4.ddd 4.dd\	.	.
16F\	.	.	.
16B-\	.	.	.
16An\	.	.	.
16G\	.	.	.
16F\JJ	.	.	.
16En\LL	8cccL 8cc\	.	.
16F\	.	.	.
16E\	8gg 8g\	.	.
16E-X\	.	.	.
16D\	8aanJ 8an\	.	.
16E-\JJ	.	.	.
=44	=44	=44	=44
16D\LL	4.bb- 4.b-\	.	.
16BB-\	.	.	.
16FF\	.	.	.
16DD\	.	.	.
16FF\	.	.	.
16BB-\JJ	.	.	.
16D\LL	8ffL 8f\	.	.
16E-\	.	.	.
16F\	8bb- 8b-\	.	.
16G\	.	.	.
16An\	8dddJ 8dd\	.	.
16B-\JJ	.	.	.
=45	=45	=45	=45
16An\LL	4fff 4ff\	.	.
16c\	.	.	.
16d\	.	.	.
16c\	.	.	.
16B-\	8fff 8ff\	.	.
16A\JJ	.	.	.
16G\LL	8gggL 8gg\	.	.
16F#X\	.	.	.
16G\	8ddd 8dd\	.	.
16A\	.	.	.
16B-\	8eeenJ 8een\	.	.
16C\JJ	.	.	.
=46	=46	=46	=46
16An\LL	4.fff 4.ff\	.	.
16F\	.	.	.
16C\	.	.	.
16AAn\	.	.	.
16FF\	.	.	.
16F\JJ	.	.	.
16A\LL	16eenLL 16en\	.	.
!	!LO:TX:t=P:problem: przekreślone "2" pomiędzy nutami	!	!
16G\	16ff 16f\	.	.
16F\	16gg 16g\	.	.
!	!LO:TX:t=P:problem: przekreślone "2" pomiędzy nutami	!	!
16E-\	16aan 16an\	.	.
16D\	16bb- 16b-\	.	.
!	!LO:TX:t=P:problem: przekreślone "2" pomiędzy nutami	!	!
16C\JJ	16cccJJ 16cc\	.	.
!!LO:LB:g=original
=47	=47	=47	=47
16BB-\LL	4.ddd 4.dd\	.	.
16F\	.	.	.
16G\	.	.	.
16An\	.	.	.
16B-\	.	.	.
16D\JJ	.	.	.
16E-\LL	8cccL 8cc\	.	.
16G\	.	.	.
16F\	8gg 8g\	.	.
16E-\	.	.	.
16D\	8aanJ 8an\	.	.
16C\JJ	.	.	.
=48	=48	=48	=48
16BB-\LL	4bb- 4b-\	.	.
16GG\	.	.	.
16BB-\	.	.	.
16D\	.	.	.
16G\	8bb- 8b-\	.	.
16d\JJ	.	.	.
16c\LL	8aanL 8an\	.	.
16Bn\	.	.	.
16c\	8een 8en\	.	.
16c#X\	.	.	.
16d\	8ff#XJ 8f#X\	.	.
16cn\JJ	.	.	.
=49	=49	=49	=49
16B-\LL	8ggL 8g\	.	.
16G\	.	.	.
16E-\	16ff#XL 16f#X\	.	.
16D\	16ggJ 16g\	.	.
!LO:TX:t=P:problem: strzałka nad nutą	!	!	!
16C\	8eee-J 8ee-\	.	.
16G\JJ	.	.	.
16An\LL	4ddd 4dd\	.	.
16F\	.	.	.
16E-\	.	.	.
16C\	.	.	.
16AAn\	8ccc 8cc\	.	.
16FF\JJ	.	.	.
=50	=50	=50	=50
!	!	!	!LO:DY:b
8BB-L 8BBB-\	4bb- 4b-\	.	p
*clefG2	*	*	*
8f 8d 8B-\	.	.	.
8fJ 8d 8B-\	[<8b-\	.	.
*tremolo	*	*	*
8b-L 8f 8d 8B-/	8b-\L]	.	.
8b- 8f 8d 8B-/	16dd\L	.	.
.	16ff\J	.	.
8b-J 8f 8d 8B-/	8bb-\J	.	.
*Xtremolo	*	*	*
=51	=51	=51	=51
8anL 8en 8c#X 8B-/	8aan\L	.	.
8a 8e 8c# 8B-/	16bb-\L	.	.
.	16aa\J	.	.
8aJ 8f#X 8d 8c# 8B-/	8dd\J	.	.
8gL 8d 8B-/	8gg\L	.	.
8g 8d 8B-/	16aa\L	.	.
.	16gg\J	.	.
8gJ 8en 8c#X 8B-/	8cc#X\J	.	.
=52	=52	=52	=52
8F/L	8ff\L	.	.
8b- 8f 8d/	16een\L	.	.
.	16ff\	.	.
8b-J 8f 8d/	16bb-\	.	.
.	16ddd\JJ	.	.
*tremolo	*	*	*
8b-L 8f 8d/	16ggg\LL	.	.
.	16fff\	.	.
8b- 8f 8d/	16eee-\	.	.
.	16ddd\	.	.
8b-J 8f 8d/	16ccc\	.	.
.	16bb-\JJ	.	.
*Xtremolo	*	*	*
!!LO:LB:g=original
=53	=53	=53	=53
*clefG2	*	*	*
8F/L	16aan\LL	.	.
.	16gg\	.	.
8an 8f 8e-/	16ff\	.	.
.	16ee-\	.	.
8aJ 8f 8e-/	16dd\	.	.
.	16cc\JJ	.	.
*tremolo	*	*	*
8fL 8e-/	16b-\LL	.	.
.	16an\	.	.
8f 8e-/	16g\	.	.
.	16f\	.	.
8fJ 8e-/	16g\	.	.
.	16a\JJ	.	.
*Xtremolo	*	*	*
*clefF4	*	*	*
=54	=54	=54	=54
4B- 4BB-\	8b-\L	.	.
.	8ff 8dd\	.	.
*clefG2	*	*	*
[<8B-/	8ffJ 8dd\	.	.
*	*tremolo	*	*
8B-/L]	8ffL 8dd\	.	.
16d/L	8ff 8dd\	.	.
16f/J	.	.	.
8b-/J	8ffJ 8dd\	.	.
*	*Xtremolo	*	*
=55	=55	=55	=55
8an/L	8aanL 8cc#X\	.	.
16b-/L	8aa 8cc#\	.	.
16a/J	.	.	.
8d/J	8ff#XJ 8ccn\	.	.
8g/L	8ggL 8b-\	.	.
16a/L	8gg 8b-\	.	.
16g/J	.	.	.
8en/J	8dd-XJ 8b-\	.	.
=56	=56	=56	=56
8f/L	8ddnL 8b-\	.	.
16en/L	16cc#XL 16b-\	.	.
16f/	16dd\	.	.
16b-/	16ff 16dd\	.	.
16dd/JJ	16bb-\JJ	.	.
8ff\L	8ddd\L	.	.
16ee-\L	16bb-L 16gg\	.	.
16dd\	16ff\	.	.
16cc\	16ff 16ee-\	.	.
16b-\JJ	16dd\JJ	.	.
=57	=57	=57	=57
16an\LL	16ffLL 16cc\	.	.
16g\	16b-\	.	.
16f\	16cc 16an\	.	.
16e-\	16dd\	.	.
16d\	16ee- 16a\	.	.
16c\JJ	16ff\JJ	.	.
*clefF4	*	*	*
!	!LO:TUP:a:problem:klamra łukowa	!	!
16B-\LL	24cccLL 24ee-\	.	.
.	24ddd\	.	.
16An\	.	.	.
.	24eee-\J	.	.
16G\	8fff 8ccc 8ee-\	.	.
16F\	.	.	.
16G\	8fffJ 8ccc 8ee-\	.	.
16A\JJ	.	.	.
=58	=58	=58	=58
8BB-\L	4bb- 4b-\	.	.
8d 8B-\	.	.	.
8dJ 8B-\	8b-\	.	.
8dL 8B-\	8b-\L	.	.
8e-\	8cc\	.	.
8enJ 8An\	8cc#XJ 8g\	.	.
!!LO:PB:g=original
=59	=59	=59	=59
8d\L	8dd 8an 8f\	.	.
8D'>\	8r	.	.
8D'>\J	8r	.	.
8An\L	8ff 8an 8e-\	.	.
8FF\	8r	.	.
8FF\J	8r	.	.
=60	=60	=60	=60
!LO:N:n=1:vis=4	!	!	!
4.B- [<4.BB-\	8b-L 8d\	.	.
.	8f 8d\	.	.
.	8gJ 8e-\	.	.
8BB-\L]	8fL 8d\	.	.
8C\	8An\	.	.
8C#X\J	8enJ 8G\	.	.
=61	=61	=61	=61
*	*^	*	*
4.D\	8d 8F/	8rcyy	.	.
.	8fL 8An/	4.f/	.	.
.	8B-/J	.	.	.
4.F 4.FF\	8A/L	.	.	.
.	8c/	4rcyy	.	.
.	8d/J	.	.	.
*	*v	*v	*	*
=62	=62	=62	=62
8BB-\L	8B-/	.	.
16AAn\L	8r	.	.
16BB-\J	.	.	.
8D\J	[<8B-/	.	.
16C#X\LL	8B-/L]	.	.
16D\	.	.	.
16E-\	16An/L	.	.
16D\	16B-/J	.	.
16C#\	8f/J	.	.
16D\JJ	.	.	.
=63	=63	=63	=63
8DL 8BB-\	8f/	.	.
16C#X\L	8r	.	.
16D\J	.	.	.
8F\J	[<8d/	.	.
16En\LL	8d/L]	.	.
16F\	.	.	.
16G\	16c#X/L	.	.
16F\	16d/J	.	.
16E\	8a-X/J	.	.
16F\JJ	.	.	.
=64	=64	=64	=64
16AnLL 16BB-\	8a-/L	.	.
16B-\	.	.	.
16c\	16en/L	.	.
!	!	!	!LO:HP:b:t=cresc
16B-\	16f/J	.	<
16A\	8dd/J	.	.
16B-\JJ	.	.	.
*clefG2	*	*	*
16c#X/LL	8dd/L	.	.
16d/	.	.	.
16e-/	16an/L	.	.
16d/	16b-/J	.	.
16c#/	8ff/J	.	.
16d/JJ	.	.	.
!!LO:LB:g=original
=65	=65	=65	=65
*clefG2	*	*	*
16en/LL	8ff/L	.	.
16f/	.	.	.
16g/	16cc#X/L	.	.
16f/	16dd/J	.	.
16e/	8aa-/J	.	.
16f/JJ	.	.	.
16an/LL	8aa-\L	.	.
16b-/	.	.	.
16cc/	16een\L	.	.
16b-/	16ff\J	.	.
16a/	8ddd\J	.	.
16b-/JJ	.	.	.
=66	=66	=66	=66
4f 4B-/	16ddd\LL	.	.
!	!	!	!LO:HP:b
.	16fff\	.	>
.	16aaa-\	.	.
.	16fff\	.	.
16dd\LL	16aa-\	.	.
16ff\JJ	16ddd\JJ	.	.
16dd\LL	16aa-\LL	.	.
16ff\	16ddd\	.	.
16aa-\	16fff\	.	.
16ff\	16ddd\	.	.
16a-\	16ff\	.	.
16dd\JJ	16aa-\JJ	.	.
=67	=67	=67	=67
16a-\LL	16ff\LL	.	.
16dd\	16aa-\	.	.
16ff\	16ddd\	.	.
16dd\	16aa-\	.	.
16f\	16dd\	.	.
16a-\JJ	16ff\JJ	.	.
16f\LL	16dd\LL	.	.
16a-\	16ff\	.	.
16dd\	16aa-\	.	.
16a-\	16ff\	.	.
16d\	16a-\	.	.
16f\JJ	16dd\JJ	.	.
=68	=68	=68	=68
16d\LL	16a-\LL	.	.
16f\J	16dd\	.	.
8a-\	16ff\	.	.
.	16dd\	.	]
8a-\J	16a-\	.	.
.	16dd\JJ	.	.
16d-X\LL	16a-\LL	.	.
16f\J	16dd-X\	.	.
8a-\	16ff\	.	.
.	16dd-\	.	.
8a-\J	16a-\	.	.
.	16dd-\JJ	.	.
=69	=69	=69	=69
16c\LL	16a-\LL	.	.
16f\J	16cc\	.	.
8a-\	16ff\	.	.
.	16cc\	.	.
8a-\J	16a-\	.	.
.	16cc\JJ	.	.
16c\LL	16a-\LL	.	.
16f\J	16cc-X\	.	.
8a-\	16ff\	.	.
.	16cc-\	.	.
8a-\J	16a-\	.	.
.	16cc-\JJ	.	.
!LO:CL:ed	!	!	!
*clefF4	*	*	*
=70	=70	=70	=70
!	!	!	!LO:DY:b
8BB-\L	4.b-\	.	p
8d 8B- 8A-\	.	.	.
8dJ 8B- 8A-\	.	.	.
.	8qcc/	.	.
*tremolo	*	*	*
8dL 8B- 8A-\	8b-\L	.	.
.	8qan/	.	.
8d 8B- 8A-\	8b-\	.	.
.	8qcc/	.	.
8dJ 8B- 8A-\	8dd\J	.	.
*Xtremolo	*	*	*
!!LO:LB:g=original
=71	=71	=71	=71
8EE-\L	4ee-\	.	.
8e- 8B- 8G\	.	.	.
8e-J 8B- 8G\	8gg\	.	.
*tremolo	*	*	*
8e-L 8B- 8G\	4.b-\	.	.
8e- 8B- 8G\	.	.	.
8e-J 8B- 8G\	.	.	.
*Xtremolo	*	*	*
=72	=72	=72	=72
8AA-\L	4cc\	.	.
8f 8c 8A-\	.	.	.
8fJ 8c 8A-\	16bn\LL	.	.
.	16cc\JJ	.	.
.	8qff/	.	.
8fL 8c 8A-\	8ee-\L	.	.
.	8qdd/	.	.
8f 8c 8A-\	8cc\	.	.
.	8qb/	.	.
8f#XJ 8c 8A-\	8cc\J	.	.
=73	=73	=73	=73
8GG\L	4.dd\	.	.
8Bn 8G 8F\	.	.	.
8BJ 8G 8F\	.	.	.
*tremolo	*	*	*
8BL 8G 8F#X\	8g\	.	.
8B 8G 8F#\	8r	.	.
8BJ 8G 8F#\	8r	.	.
*Xtremolo	*	*	*
=74	=74	=74	=74
8C\L	8g/L	.	.
8c 8G 8E-\	16f#X/L	.	.
.	16g/J	.	.
8cJ 8G 8E-\	8cc/J	.	.
.	8qbn\	.	.
*tremolo	*	*	*
8cL 8G 8E-\	8cc\L	.	.
.	16qdd\	.	.
8c 8G 8E-\	8cc\	.	.
.	8qb/	.	.
8cJ 8G 8E-\	8cc\J	.	.
*Xtremolo	*	*	*
=75	=75	=75	=75
8AA-\L	8cc\L	.	.
8e- 8c 8A-\	16bn\L	.	.
.	16cc\J	.	.
8e-J 8c 8A-\	8ee-\J	.	.
.	8qdd/	.	.
*tremolo	*	*	*
8e-L 8c 8A-\	8ee-\L	.	.
.	8qff/	.	.
8e- 8c 8A-\	8ee-\	.	.
.	8qdd/	.	.
8e-J 8c 8A-\	8ee-\J	.	.
*Xtremolo	*	*	*
=76	=76	=76	=76
8FF\L	4gg\	.	.
8e- 8An 8F\	.	.	.
8e-J 8A 8F\	16ff\LL	.	.
.	16ee-\JJ	.	.
.	8qdd/	.	.
*tremolo	*	*	*
8e-L 8A 8F\	8cc\L	.	.
.	8qbn/	.	.
8e- 8A 8F\	8cc\	.	.
.	8qff/	.	.
8e-J 8A 8F\	8an\J	.	.
*Xtremolo	*	*	*
!!LO:LB:g=original
=77	=77	=77	=77
.	8qan/	.	.
8BB-\L	8b-\L	.	.
.	8qa/	.	.
8d 8B- 8F\	8b-\	.	.
.	8qdd/	.	.
8e-J 8An 8G-X\	8cc\J	.	.
8dL 8B- 8F\	8ccM>\L	.	.
8d 8B- 8A-X 8F\	8b-\	.	.
8dJ 8B- 8A- 8F\	8b-\J	.	.
=78	=78	=78	=78
4.B- 4.BB-\	8r	.	.
.	8b-L 8a- 8d\	.	.
.	8b-J 8a- 8d\	.	.
8qc/	.	.	.
8B-\L	8r	.	.
8qAn/	.	.	.
8B-\	8b-L 8a- 8d\	.	.
8qc/	.	.	.
8d\J	8b-J 8a- 8d\	.	.
=79	=79	=79	=79
4e- 4E-\	8r	.	.
.	8b-L 8g 8e-\	.	.
8g\	8b-J 8g\	.	.
4.B-\	8r	.	.
.	8b-L 8g 8e-\	.	.
.	8b-J 8g 8e-\	.	.
=80	=80	=80	=80
4c 4A-\	8r	.	.
.	8ccL 8a- 8e-\	.	.
16Bn\LL	8ccJ 8a- 8e-\	.	.
16c\JJ	.	.	.
8qf/	.	.	.
8e-\L	8r	.	.
8qd/	.	.	.
8c\	8ccL 8a- 8f\	.	.
8qBn/	.	.	.
8c\J	8ccJ 8a- 8f\	.	.
=81	=81	=81	=81
4.d 4.G\	8r	.	.
.	8bnL 8g\	.	.
.	8bJ 8g\	.	.
8G\	8r	.	.
8r	8bL 8g 8d\	.	.
8r	8bJ 8g 8d\	.	.
=82	=82	=82	=82
8GL 8C\	8r	.	.
16F#X\L	8ccL 8g 8e-\	.	.
16G\J	.	.	.
8c\J	8ccJ 8g 8e-\	.	.
8qBn/	.	.	.
8c\L	8r	.	.
8qd/	.	.	.
8c\	8ccL 8g 8e-\	.	.
8qB/	.	.	.
8c\J	8ccJ 8g 8e-\	.	.
!!LO:LB:g=original
=83	=83	=83	=83
8cL 8A-\	8r	.	.
16Bn\L	8ee-L 8cc 8a-\	.	.
16c\J	.	.	.
8e-\J	8ee-J 8cc 8a-\	.	.
8qd/	.	.	.
8e-\L	8r	.	.
8qf/	.	.	.
8e-\	8ee-L 8cc 8a-\	.	.
8qd/	.	.	.
8e-\J	8ee-J 8cc 8a-\	.	.
=84	=84	=84	=84
8gL 8B-\	8r	.	.
16f\L	8ee-L 8b- 8g\	.	.
16e-\	.	.	.
16d\	8ee-J 8b- 8g\	.	.
16c\JJ	.	.	.
16c\LL	8r	.	.
16B-\	.	.	.
16An\	8ffL 8b- 8a-\	.	.
16B-\	.	.	.
16c\	8ffJ 8b- 8a-\	.	.
16d\JJ	.	.	.
=85	=85	=85	=85
!LO:N:n=2:vis=4	!	!	!
4.f 4.E-\	8r	.	.
.	8ddL 8b- 8a-\	.	.
.	8ddJ 8b- 8a-\	.	.
8e-\	4ee- 4b- 4g\	.	.
8r	.	.	.
8r	16E-/LL	.	.
.	16E-/JJ	.	.
=86||	=86||	=86||	=86||
*k[b-e-a-d-]	*k[b-e-a-d-]	*	*
*A-:	*A-:	*	*
!	!	!	!LO:DY:b
4.C 4.AA-\	4.A-< 4.E-</	.	f
4D-\	4F</	.	.
8E- 8C\	8An</	.	.
=87	=87	=87	=87
4.D- 4.BB-\	4.B-< 4.F</	.	.
4E-\	4G</	.	.
8F 8Dn\	8Bn</	.	.
=88	=88	=88	=88
*2\left	*	*	*
2.E- 2.C\	4c< 4G</	.	.
.	8c</	.	.
.	8.c</L	.	.
.	16Bn</K	.	.
.	8c</J	.	.
=89	=89	=89	=89
*2\right	*	*	*
2.D- 2.EE-\	[>4.e-< 4.G</	.	.
.	8e-</L]	.	.
.	8f</	.	.
.	8g</J	.	.
!!LO:PB:g=original
=90	=90	=90	=90
!LO:N:n=2:vis=4	!	!	!
4.C [<4.FF\	4a-< 4c< 4A-</	.	.
.	8g</	.	.
!LO:N:n=2:vis=4	!	!	!
4.F 4.FF\]	8f</L	.	.
.	8e-</	.	.
.	8dn</J	.	.
=91	=91	=91	=91
.	8qe-</	.	.
!LO:N:vis=4	!	!	!
[>4.F 4.C [<4.GG\	8dn<L 8G</	.	.
.	8c#X</	.	.
.	8d</J	.	.
!LO:N:n=1:vis=4	!	!	!
!LO:N:n=3:vis=4	!	!	!
4.F] 4.BBn 4.GG\]	4g</	.	.
.	8G</	.	.
=92	=92	=92	=92
4.BBn 4.GG\	8G</L	.	.
.	16A-</L	.	.
.	16G</	.	.
.	16F#X</	.	.
.	16G</JJ	.	.
8BB-XL 8EE-X\	4e-< 4G</	.	.
8C\	.	.	.
8D-\J	8e-</	.	.
=93	=93	=93	=93
4.C 4.AA-\	8A-</L	.	.
.	16A-</L	.	.
.	16E-</	.	.
.	16C</	.	.
.	16E-</JJ	.	.
!	!LO:TX:a:t=P:problem:mixed beam	!	!
4rBB	16A-</LL	.	.
.	16Bn</	.	.
.	16c</	.	.
.	16d-\	.	.
8r	16dn\	.	.
.	16e-\JJ	.	.
=94	=94	=94	=94
4A- 4AA-\	4.a- 4.c\	.	.
8C\	.	.	.
4D-\	4f\	.	.
8F\	8an 8e-\	.	.
=95	=95	=95	=95
4B- 4BB-\	4.b- 4.dn\	.	.
8Dn\	.	.	.
4E-\	4g\	.	.
8G\	8bn 8f\	.	.
!!LO:LB:g=original
=96	=96	=96	=96
4c 4C\	4cc 4g 4en\	.	.
8G\	8cc\	.	.
!	!LO:N:n=2:vis=8	!	!
!	!LO:N:n=3:vis=8	!	!
4c\	8.ccL 8.g 8.e\	.	.
.	16bn\K	.	.
8C\	8cc\J	.	.
=97	=97	=97	=97
8qEE-/	.	.	.
2.d-X 2.E-\	[>4.ee-X [<4.g [<4.e-X\	.	.
.	8ee-]L 8g] 8e-\]	.	.
.	8ff\	.	.
.	8gg\J	.	.
=98	=98	=98	=98
8cL 8F\	4aa- 4cc 4a-\	.	.
8En\	.	.	.
8F\J	16gg\LL	.	.
.	16aa-\JJ	.	.
8FF\L	16bb-\LL	.	.
.	16aa-\	.	.
16F\L	16gg\	.	.
16A-\	16ff\	.	.
16c\	16ee-\	.	.
16dn\JJ	16ddn\JJ	.	.
=99	=99	=99	=99
*^	*	*	*
8Bn/	4G\	16cc#X\LL	.	.
.	.	16ddn\	.	.
4c/	.	16ee-\	.	.
.	.	16een\	.	.
.	8A-\	16ff\	.	.
.	.	16ff#X\JJ	.	.
4.Bn/	8G\L	4gg\	.	.
.	8GG\	.	.	.
.	8G\J	8g\	.	.
=100	=100	=100	=100	=100
8Bn/L	4.G\	8g\L	.	.
8.c/	.	16a-\L	.	.
.	.	16g\	.	.
.	.	16f#X\	.	.
16B/Jk	.	16g\JJ	.	.
8B-X/L	4.E-\	4ff 4g\	.	.
8c/	.	.	.	.
8d-X/J	.	8ee-\	.	.
*v	*v	*	*	*
=101	=101	=101	=101
8cL 8A-\	4.a-\	.	.
16e-\L	.	.	.
16c\	.	.	.
16A-\	.	.	.
16c\JJ	.	.	.
16E-\LL	4r	.	.
16A-\	.	.	.
16C\	.	.	.
16E-\J	.	.	.
8AA-\J	8r	.	.
!!LO:LB:g=original
=102	=102	=102	=102
!	!LO:N:n=1:vis=4.	!	!
4.F 4.C 4.FF\	4a- 4c 4A-/	.	.
.	8a-/	.	.
.	16qqb-\	.	.
4.F\	8.a-/L	.	.
.	16g/K	.	.
.	8a-/J	.	.
=103	=103	=103	=103
!	!LO:N:n=2:vis=4	!	!
!	!LO:N:n=3:vis=4	!	!
!	!LO:N:n=4:vis=4	!	!
4G 4E- 4GG\	4.cc 4.g 4.e- 4.c/	.	.
16f#X\LL	.	.	.
16g\JJ	.	.	.
16a-\LL	4bn/	.	.
16g\	.	.	.
16fn\	.	.	.
16e-\	.	.	.
16dn\	8cc/	.	.
16c\JJ	.	.	.
=104	=104	=104	=104
16BnLL 16G\	4ddn/	.	.
16c\	.	.	.
16dn\	.	.	.
16e-\	.	.	.
!	!LO:TX:b:t=P:problem:strzałki wskazujące przyporządkowanie dźwięków	!	!
16f\	8cc/	.	.
16f#X\JJ	.	.	.
4g\	8bn/L	.	.
.	8gg/	.	.
8fn\	8b/J	.	.
=105	=105	=105	=105
8e-L 8c\	2.cc/	.	.
16g\L	.	.	.
16e-\	.	.	.
16c\	.	.	.
16e-\JJ	.	.	.
16G\LL	.	.	.
16c\	.	.	.
16E-\	.	.	.
16G\J	.	.	.
8C\J	.	.	.
=106	=106	=106	=106
!	!	!	!LO:DY:b
[>4.A- 4.E- 4.AA-\	4cc 4a- 4e- 4c/	.	f
.	8cc/	.	.
4.A-\]	8.ccm</L	.	.
.	16bn/K	.	.
.	8cc/J	.	.
=107	=107	=107	=107
4B- 4G 4BB-\	4.ee- 4.b- 4.g/	.	.
*clefG2	*	*	*
16an\LL	.	.	.
16b-\JJ	.	.	.
16cc-X\LL	4ddn/	.	.
16b-\	.	.	.
16a-X\	.	.	.
16g\	.	.	.
16f\	8ee-/	.	.
16e-\JJ	.	.	.
=108	=108	=108	=108
16dnLL 16B-/	4ff/	.	.
16e-/	.	.	.
16f/	.	.	.
16g/	.	.	.
16a-/	8ee-/	.	.
16an/JJ	.	.	.
4b-/	8ddn/L	.	.
.	8aa-/	.	.
8a-X 8B-/	8dd/J	.	.
!!LO:LB:g=original
=109	=109	=109	=109
*clefG2	*	*	*
!	!	!	!LO:DY:b
8E-/L	4ee-\	.	pp
8b- 8g 8e-/	.	.	.
8b-J 8g 8e-/	8gg\	.	.
8ccL 8dn/	8ff#X\L	.	.
8cc 8d/	16gg\L	.	.
.	16ff#\J	.	.
8bnJ 8g/	8ddn\J	.	.
=110	=110	=110	=110
8b-XL 8c/	8een\L	.	.
8b- 8c/	16ff\L	.	.
.	16ee\J	.	.
8anJ 8f/	8cc\J	.	.
8a-XL 8B-/	4.ddntt>\	.	.
8a- 8B-/	.	.	.
8a-J 8B-/	.	.	.
=111	=111	=111	=111
!LO:TX:t=P:problem:mixed beam	!	!	!
8g 8e-/	4ee- 4g\	.	.
*clefF4	*	*	*
8e-\ 8E-\L	.	.	.
8e-\J 8E-\	8g\	.	.
8cL 8Dn\	8f#X\L	.	.
8c 8D\	16g\L	.	.
.	16f#\J	.	.
8BnJ 8G\	8dn\J	.	.
=112	=112	=112	=112
8B-XL 8C\	8en/L	.	.
8B- 8C\	16f/L	.	.
.	16e/J	.	.
8AnJ 8F\	8c/J	.	.
8A-XL 8BB-\	4.dntt>/	.	.
8A- 8BB-\	.	.	.
8A-J 8BB-\	.	.	.
=113	=113	=113	=113
!	!	!	!LO:HP:b
4E- 4BB- 4EE-\	4.e- 4.G/	.	<
8E-\	.	.	.
8.E-L 8.C 8.EE-\	4.e- 4.A-/	.	.
16E-\K	.	.	.
8E-\J	.	.	.
=114	=114	=114	=114
4e- 4B- 4E-\	4.ee- 4.g\	.	.
8e-\	.	.	.
8.e-L 8.c 8.E-\	4.ee- 4.a-\	.	.
16e-\K	.	.	.
8e-\J	.	.	[
=115	=115	=115	=115
4g 4d- 4B- 4E-\	4eee- 4gg 4ee-\	.	.
*clefG2	*	*	*
16ddn\LL	16dddn\LL	.	.
16ee-\JJ	16eee-\JJ	.	.
16ff\LL	16fff\LL	.	.
16ee-\	16eee-\	.	.
16dd-X\	16ddd-X\	.	.
16b-\	16bb-\	.	.
16g\	16gg\	.	.
16e-\JJ	16ee-\JJ	.	.
!LO:CL:ed	!	!	!
*clefF4	*	*	*
!!LO:LB:g=original
=116	=116	=116	=116
16f\LL	16ff\LL	.	.
16e-\	16ee-\	.	.
16d-\	16dd-\	.	.
16B-\	16b-\	.	.
16G\	16g\	.	.
16E-\JJ	16e-\JJ	.	.
!	!LO:TX:t=P:problem:mixed beam	!	!
16F\LL	16f\LL	.	.
16E-\	16e-\	.	.
16D-\	16d-\	.	.
16BB-\	16B-\	.	.
16GG\	16G</	.	.
16EE-\JJ	16E-</JJ	.	.
=117	=117	=117	=117
!	!	!	!LO:DY:b
4.AA- 4.AAA-\	4.A-< 4.C</	.	f
4DD-\	4F< 4D-</	.	.
8FF\	8An< 8E-</	.	.
=118	=118	=118	=118
4.BB- 4.BBB-\	4.B-< 4.Dn</	.	.
4EE-\	4G< 4E-</	.	.
8GG\	8Bn< 8F</	.	.
=119	=119	=119	=119
4C 4CC\	4c< 4G< 4En</	.	.
8GG\	8c</	.	.
4C\	8.c</L	.	.
.	16Bn</K	.	.
8CC\	8c</J	.	.
=120	=120	=120	=120
*2\left	*	*	*
2.D- 2.EE-\	[>4.e-< 4.G</	.	.
.	8e-</L]	.	.
.	8f</	.	.
.	8g</J	.	.
=121	=121	=121	=121
8CL 8FF\	4a-\ 4c\ 4A-\	.	.
8EEn\	.	.	.
8FF\J	16g\LL	.	.
.	16a-\JJ	.	.
4A- 4BBn\	16b-\LL	.	.
.	16a-\	.	.
.	16g\	.	.
.	16f\	.	.
8FF\	16e-\	.	.
.	16dn\JJ	.	.
=122	=122	=122	=122
8GGL 8CC\	4e-< 4G< 4E-</	.	.
8BBBn\	.	.	.
8CC\J	16dn</LL	.	.
.	16e-</JJ	.	.
4G-X 4AAn\	16f</LL	.	.
.	16e-</	.	.
.	16d-X</	.	.
.	16c</	.	.
8CC\	16B-</	.	.
.	16An</JJ	.	.
!!LO:PB:g=original
=123	=123	=123	=123
.	8qc</	.	.
8BB-L 8DD-\	16B-</LL	.	.
.	16An</	.	.
8F\	16B-</	.	.
.	16c</	.	.
8BB-\J	16d-</	.	.
.	16dn</JJ	.	.
4D- 4EE-\	4e-< 4G</	.	.
8EE-\	8G</	.	.
=124	=124	=124	=124
4C 4AA-\	8A-</L	.	.
.	16A-</L	.	.
.	16E-</	.	.
8ryy	16C</	.	.
.	16E-</JJ	.	.
!	!LO:TX:t=P:problem:mixed beam	!	!
4ryy	16A-</LL	.	.
.	16c\	.	.
.	16e-\	.	.
.	16a-\	.	.
8ryy	16cc\	.	.
.	16ff\JJ	.	.
=125	=125	=125	=125
!	!	!	!LO:DY:b
16FF\LL	4aa- 4cc 4a-\	.	p
16C\	.	.	.
16F\	.	.	.
16A-\	.	.	.
16c\	16gg\LL	.	.
16dn\JJ	16aa-\JJ	.	.
8F\L	16bb-\LL	.	.
.	16aa-\	.	.
8a- 8Bn\	16gg\	.	.
.	16ff\	.	.
8F\J	16ee-\	.	.
.	16dd-\JJ	.	.
=126	=126	=126	=126
16CC\LL	4ee- 4g 4e-\	.	.
16GG\	.	.	.
16C\	.	.	.
16E-\	.	.	.
16G\	16ddn\LL	.	.
16A-\JJ	16ee-\JJ	.	.
8C\L	16ff\LL	.	.
.	16ee-\	.	.
8e- 8G-X\	16dd-X\	.	.
.	16cc\	.	.
8C\J	16b-\	.	.
.	16an\JJ	.	.
=127	=127	=127	=127
.	16qcc/	.	.
8D-L 8DD-\	16b-\LL	.	.
.	16an\	.	.
8f 8B-\	16b-\	.	.
.	16cc\	.	.
8D-\J	16dd-\	.	.
.	16ddn\JJ	.	.
8EE-\L	4ee- 4g\	.	.
8d- 8G\	.	.	.
8E-\J	8g\	.	.
=128	=128	=128	=128
!	!	!	!LO:DY:b:t=pp.
8AA-\L	4a-\	.	pp
8e- 8c 8A-\	.	.	.
8e-J 8c 8A-\	8cc\	.	.
8fL 8G\	8bn\L	.	.
8f 8G\	16cc\L	.	.
.	16b\J	.	.
8enJ 8c\	8g\J	.	.
!!LO:LB:g=original
=129	=129	=129	=129
8e-L 8F\	8an\L	.	.
8e- 8F\	16b-\L	.	.
.	16a\J	.	.
8dnJ 8B-\	8f\J	.	.
8d-XL 8E-\	4.gTT>\	.	.
8d- 8E-\	.	.	.
8d-J 8E-\	.	.	.
=130	=130	=130	=130
8cL 8A-\	4a-\	.	.
8A- 8AA-\	.	.	.
8A-J 8AA-\	8c\	.	.
8FL 8GG\	8Bn/L	.	.
8F 8GG\	16c/L	.	.
.	16B/J	.	.
8EnJ 8C\	8G/J	.	.
=131	=131	=131	=131
8E-XL 8FF\	8An/L	.	.
8E- 8FF\	16B-/L	.	.
.	16A/J	.	.
8DnJ 8BB-\	8F/J	.	.
8D-XL 8EE-\	4.Gtt</	.	.
8D- 8EE-\	.	.	.
8D-J 8EE-\	.	.	.
=132	=132	=132	=132
4.AA- 4.AAA-\	4A-< 4C</	.	.
!	!	!	!LO:DY:b:rj
.	8A-</	.	f
4.FF-X 4.DD-\	16F-X</LL	.	.
.	16D-</	.	.
.	16AA-</	.	.
.	16D-</	.	.
.	16F-</	.	.
.	16A-</JJ	.	.
=133	=133	=133	=133
4.AA- 4.AAA-/	4a- 4c 4A-\	.	.
.	8a-\	.	.
4.F-X 4.D-\	16f-X\LL	.	.
.	16d-\	.	.
.	16A-\	.	.
.	16d-\	.	.
.	16f-\	.	.
.	16a-\JJ	.	.
=134	=134	=134	=134
8c 8E- 8AA-\	8aa- 8cc 8a-\	.	.
!	!LO:TX:t=P:problem:oznaczenia "ms" i "md" znajdują się bezpośrednio pod nutami	!	!
!	!LO:TX:b:i:t=ms	!	!
16ccc>\	16ryy	.	.
!	!LO:TX:a:i:t=md	!	!
16ryy	16aaa- 16eee-/	.	.
!	!LO:TX:b:i:t=ms	!	!
8aa->\	16ryy	.	.
!	!LO:TX:a:i:t=md	!	!
.	16eee- 16ccc/	.	.
8ee->\	16ryy	.	.
.	16ccc 16aa-/	.	.
16cc>\	16ryy	.	.
16ryy	16aa- 16ee-/	.	.
16a->\	16ryy	.	.
16ryy	16ee- 16cc/	.	.
!!LO:LB:g=original
=135	=135	=135	=135
16e->\	16ryy	.	.
16ryy	16cc 16a-/	.	.
16a->\	16ryy	.	.
16ryy	16ee- 16cc/	.	.
16e->\	16ryy	.	.
16ryy	16cc 16a-/	.	.
16c>\	16ryy	.	.
16ryy	16a- 16e-/	.	.
16A->\	16ryy	.	.
16ryy	16e- 16c/	.	.
16E->\	16ryy	.	.
16ryy	16c 16A-/	.	.
=136	=136	=136	=136
4.FF 4.FFF\	4f< 4c< 4A-< 4F</	.	.
!	!	!	!LO:DY:b:rj
.	8f</	.	f
4.D- 4.BB- 4.FF\	16d-</LL	.	.
.	16B-</	.	.
.	16F</	.	.
.	16B-</	.	.
.	16d-</	.	.
.	16f</JJ	.	.
=137	=137	=137	=137
4.F 4.FF\	4ff 4cc 4a- 4f\	.	.
.	8ff\	.	.
4.d- 4.B- 4.F\	16dd-\LL	.	.
.	16b-\	.	.
.	16f\	.	.
.	16b-\	.	.
.	16dd-\	.	.
.	16ff\JJ	.	.
=138	=138	=138	=138
8f 8c 8A- 8F\	8fff 8ccc 8aa- 8ff\	.	.
16aa->\	16ryy	.	.
16ryy	16fff 16ccc/	.	.
16ff>\	16ryy	.	.
16ryy	16ccc 16aa-/	.	.
16cc>\	16ryy	.	.
16ryy	16aa- 16ff/	.	.
16a->\	16ryy	.	.
16ryy	16ff 16cc/	.	.
16f>\	16ryy	.	.
16ryy	16cc 16a-/	.	.
=139	=139	=139	=139
16c>\	16ryy	.	.
16ryy	16a- 16f/	.	.
16f>\	16ryy	.	.
16ryy	16cc 16a-/	.	.
16c>\	16ryy	.	.
16ryy	16a- 16f/	.	.
16A->\	16ryy	.	.
16ryy	16f 16c/	.	.
16F\	16ryy	.	.
16ryy	16c< 16A-</	.	.
16C\	16ryy	.	.
16ryy	16A-< 16F</	.	.
!!LO:LB:g=original
=140	=140	=140	=140
*	*clefF4	*	*
!	!	!	!LO:DY:b:t=p
4.BB- 4.BBB-/	8r	.	p
.	8B-L 8A- 8Dn\	.	.
.	8B-J 8A- 8D\	.	.
16C/LL	8r	.	.
16BB-/	.	.	.
16AAn/	8B-L 8A- 8D\	.	.
16BB-/	.	.	.
16C/	8B-J 8A- 8D\	.	.
16Dn/JJ	.	.	.
=141	=141	=141	=141
*	*clefG2	*	*
4.F 4.BB-/	8r	.	.
.	8a-L 8e- 8c-X/	.	.
.	8a-J 8e- 8c-/	.	.
16G/LL	8r	.	.
16F/	.	.	.
16En/	8a-L 8e- 8c-/	.	.
16F/	.	.	.
16G/	8a-J 8e- 8c-/	.	.
16A-/JJ	.	.	.
=142	=142	=142	=142
4.B- 4.BB-\	8r	.	.
.	8b-L 8a- 8dn\	.	.
.	8b-J 8a- 8d\	.	.
16c\LL	8r	.	.
16B-\	.	.	.
16An\	8b-L 8a- 8d\	.	.
16B-\	.	.	.
16c\	8b-J 8a- 8d\	.	.
16dn\JJ	.	.	.
=143	=143	=143	=143
4.f 4.B-\	8r	.	.
.	8aa-L 8ee- 8cc-X\	.	.
.	8aa-J 8ee- 8cc-\	.	.
*clefG2	*	*	*
16g/LL	8r	.	.
16f/	.	.	.
16en/	8aa-L 8ee- 8cc-\	.	.
16f/	.	.	.
16g/	8aa-J 8ee- 8cc-\	.	.
16a-/JJ	.	.	.
=144	=144	=144	=144
8B-/L	16cc\LL	.	.
!	!	!	!LO:HP:b
.	16b-\	.	<
8a- 8f/	16an\	.	.
.	16b-\	.	.
8a-J 8f/	16cc\	.	.
.	16dd-\JJ	.	.
8c/L	16gg\LL	.	.
.	16ff\	.	.
8ee- 8a- 8f/	16een\	.	.
.	16ff\	.	.
8ee-J 8a- 8f/	16gg\	.	.
.	16aa-\JJ	.	.
=145	=145	=145	=145
8B-/L	16ccc\LL	.	.
.	16bb-\	.	.
8ddn 8a- 8f/	16aan\	.	.
.	16bb-\	.	.
8ddJ 8a- 8f/	16ccc\	.	.
.	16dddn\JJ	.	.
*	*8va	*	*
8c-X/L	16ggg\LL	.	.
.	16fff\	.	.
8ee- 8a- 8f/	16eeen\	.	.
.	16fff\	.	.
8ee-J 8a- 8f/	16ggg\	.	.
.	16aaa\JJ	.	[
!!LO:LB:g=original
=146	=146	=146	=146
*clefG2	*	*	*
!	!	!	!LO:DY:b
8a- 8B-/	16dddn/LL	.	p
.	16ffff/	.	.
8r	16aaa-/	.	.
.	16ffff/JJ	.	.
!	!LO:TX:t=P:problem:oznaczenia "ms" i "md" znajdują się bezpośrednio pod nutami (t. 146-147)	!	!
!	!LO:TX:b:i:t=ms	!	!
16dd->\LL	8ryy	.	.
16aa->\JJ	.	.	.
!	!LO:TX:b:i:t=md	!	!
8ryy	16aa-/LL	.	.
.	16ddd/JJ	.	.
!	!LO:TX:b:i:t=ms	!	!
16dn>\LL	8ryy	.	.
16a->\JJ	.	.	.
!	!LO:TX:b:i:t=md	!	!
8ryy	16b-/LL	.	.
.	16aa-/JJ	.	.
*	*X8va	*	*
=147	=147	=147	=147
!	!LO:TX:i:a:t=loco	!	!
4ryy	16ddn/LL	.	.
.	16fff/	.	.
.	16aa-/	.	.
.	16fff/JJ	.	.
!	!LO:TX:b:i:t=ms	!	!
16dd->\LL	8ryy	.	.
16aa->\JJ	.	.	.
!	!LO:TX:b:i:t=md	!	!
8ryy	16a-/LL	.	.
.	16dd/JJ	.	.
!	!LO:TX:b:i:t=ms	!	!
16dn>\LL	8ryy	.	.
16a->\JJ	.	.	.
!	!LO:TX:b:i:t=md	!	!
8ryy	16B-/LL	.	.
.	16a-/JJ	.	.
=148	=148	=148	=148
4r	16B-/LL	.	.
.	16a-/	.	.
.	16c-X/	.	.
.	16a-/	.	.
!LO:N:vis=8.	!	!	!
8r	16B-/	.	.
.	16a-/JJ	.	.
4r	16c-/LL	.	.
.	16a-/	.	.
.	16cn/	.	.
.	16a-/	.	.
8r	16c-X/	.	.
.	16a-/JJ	.	.
=149	=149	=149	=149
4r	16c/LL	.	.
.	16b- 16a-/	.	.
.	16d-X/	.	.
.	16b- 16a-/	.	.
8r	16c/	.	.
.	16b-JJ 16a-/	.	.
4r	16d-/LL	.	.
.	16b- 16a-/	.	.
.	16dn/	.	.
.	16b- 16a-/	.	.
8r	16d-X/	.	.
.	16b-JJ 16a-/	.	.
!LO:CL:ed	!	!	!
*clefF4	*	*	*
*kcancel	*kcancel	*	*
=150||	=150||	=150||	=150||
*k[b-e-a-]	*k[b-e-a-]	*	*
*E-:	*E-:	*	*
!	!LO:TX:t=P:problem:w źródle zanotowane są same kasowniki przed podwójną kreską taktową	!	!LO:DY:b
4.B- 4.BB-\	16dn/LL	.	p
.	16b- 16a-/	.	.
.	16e-/	.	.
.	16b- 16a-/	.	.
.	16en/	.	.
.	16b-JJ 16a-/	.	.
16c\LL	16f/LL	.	.
16B-\	16ddn/	.	.
16An\	16g/	.	.
16B-\	16dd/	.	.
16c\	16a-/	.	.
16dn\JJ	16b-/JJ	.	.
!!LO:PB:g=original
=151	=151	=151	=151
4e- 4E-\	16g/LL	.	.
.	16ee-/	.	.
.	16a-/	.	.
.	16ee-/	.	.
8g\	16an/	.	.
.	16ee-/JJ	.	.
4.B-\	16b-/LL	.	.
.	16gg/	.	.
.	16ee-/	.	.
.	16gg/	.	.
.	16ddn/	.	.
.	16gg/JJ	.	.
=152	=152	=152	=152
4c 4A-\	16cc/LL	.	.
.	16gg/	.	.
.	16cc/	.	.
.	16ff/	.	.
16Bn\LL	16a-/	.	.
16c\JJ	16cc/JJ	.	.
16f\LL	16a-/LL	.	.
16e-\	16cc/	.	.
16dn\	16a-/	.	.
16c\	16ddn/	.	.
16Bn\	16a-/	.	.
16c\JJ	16cc/JJ	.	.
=153	=153	=153	=153
4.d 4.G\	16g/LL	.	.
.	16bn/	.	.
.	16dn/	.	.
.	16b/	.	.
.	16g/	.	.
.	16b/JJ	.	.
8G\	16b/LL	.	.
.	16dd/	.	.
8r	16b/	.	.
.	16ee-/	.	.
8r	16b/	.	.
.	16ee-/JJ	.	.
=154	=154	=154	=154
8GL 8C\	16cc/LL	.	.
.	16ee-/	.	.
16F#X\L	16g/	.	.
16G\J	16cc/	.	.
8c\J	16a-/	.	.
.	16cc/JJ	.	.
16Bn\LL	16g/LL	.	.
16c\	16cc/	.	.
16d\	16f#X/	.	.
16c\	16cc/	.	.
16B\	16g/	.	.
16c\JJ	16cc/JJ	.	.
=155	=155	=155	=155
8cL 8A-\	16a-/LL	.	.
.	16cc/	.	.
16Bn\L	16e-/	.	.
16c\J	16ee-/	.	.
8e-\J	16cc/	.	.
.	16ee-/JJ	.	.
16d\LL	16cc/LL	.	.
16e-\	16ee-/	.	.
16f\	16bn/	.	.
16e-\	16ee-/	.	.
16d\	16cc/	.	.
16e-\JJ	16ee-/JJ	.	.
!!LO:LB:g=original
=156	=156	=156	=156
4g 4F\	16an\LL	.	.
.	16cc\	.	.
.	16a\	.	.
.	16bn\	.	.
16f\LL	16a\	.	.
16e-\JJ	16cc\JJ	.	.
16d\LL	16a\LL	.	.
16c\	16gg\	.	.
16Bn\	16a\	.	.
16c\	16ff\	.	.
16f\	16a\	.	.
16An\JJ	16ee-\JJ	.	.
=157	=157	=157	=157
16AnLL 16BB-\	16an\LL	.	.
16B-\	16ee-\	.	.
16c\	16b-\	.	.
16B-\	16dd\	.	.
16d\	16a\	.	.
16c\JJ	16ff\JJ	.	.
8cM>\L	16b-\LL	.	.
.	16ff\	.	.
8B-\	16b-\	.	.
.	16dd\	.	.
8B-\J	16b-\	.	.
.	16bb-\JJ	.	.
=158	=158	=158	=158
!LO:TX:t=P:problem:mixed beam	!	!	!
.	8qbb-/	.	.
!	!	!	!LO:DY:b:t=p
8BBB-/L	4.b-\	.	p
8qd/	.	.	.
8a-\	.	.	.
8qB-/	.	.	.
8d\J	.	.	.
8qA-/	.	.	.
8B-\L	16cc-X\LL	.	.
.	16b-\	.	.
8qD/	.	.	.
8A-\	16an\	.	.
.	16b-\	.	.
16qBB-/	.	.	.
8D\J	16ccn\	.	.
.	16dd\JJ	.	.
=159	=159	=159	=159
!LO:TX:t=P:problem:mixed beam	!	!	!
8EE-/L	4ee- 4b- 4g-X\	.	.
8qe-/	.	.	.
8g-X\	.	.	.
8qB-/	.	.	.
8e-\J	8gg-X\	.	.
8qG-X/	.	.	.
8B-\L	4.b-\	.	.
16qE-/	.	.	.
8G-y\	.	.	.
16qBB-/	.	.	.
8E-\J	.	.	.
=160	=160	=160	=160
!LO:TX:t=P:problem:mixed beam	!	!	!
8AAA-/L	4ee- 4cc-X 4a- 4e-\	.	.
8qe-/	.	.	.
8a-\	.	.	.
8qc-X/	.	.	.
8e-\J	16dd\LL	.	.
.	16ee-\JJ	.	.
8qA-/	.	.	.
8c-y\L	16aa-\LL	.	.
.	16gg-X\	.	.
8qE-/	.	.	.
8A-\	16ff\	.	.
.	16ee-\	.	.
8qC-X/	.	.	.
8E-\J	16dd\	.	.
.	16ee-\JJ	.	.
=161	=161	=161	=161
!LO:TX:t=P:problem:mixed beam	!	!	!
8DD-X/L	4.ff 4.cc-X 4.f\	.	.
8qd-X/	.	.	.
8a-\	.	.	.
8qc-X/	.	.	.
8d-y\J	.	.	.
8qF/	.	.	.
8c-\L	8dd-X\	.	.
8qqD-X/	.	.	.
8F\	8r	.	.
8qC-X/	.	.	.
8D-y\J	8r	.	.
!!LO:LB:g=original
=162	=162	=162	=162
8GG-X\L	8b-\L	.	.
8qd-X/	.	.	.
8g-X\	16an\L	.	.
.	16b-\J	.	.
8qB-/	.	.	.
8d-y\J	8dd-X\J	.	.
8qG-X/	.	.	.
8B-\L	16cc\LL	.	.
.	16dd-\	.	.
8qD-X/	.	.	.
8G-y\	16ee-\	.	.
.	16dd-\	.	.
8qqBB-/	.	.	.
8D-y\J	16cc\	.	.
.	16dd-\JJ	.	.
=163	=163	=163	=163
!LO:TX:t=P:problem:mixed beam	!	!	!
8CC-X/L	8ee-L 8an 8e-\	.	.
8qe-/	.	.	.
8g-X\	16dd\L	.	.
.	16ee-\J	.	.
8qAn/	.	.	.
8e-\J	8gg-X\J	.	.
8qG-X/	.	.	.
8An\L	16ff\LL	.	.
.	16gg-\	.	.
8qE-/	.	.	.
8G-X\	16aa-\	.	.
.	16gg-\	.	.
8qC-X/	.	.	.
8E-\J	16ff\	.	.
.	16gg-\JJ	.	.
=164	=164	=164	=164
8BB-L 8BBB-/	8ggnL 8ee- 8b- 8gn\	.	.
8e- 8B-/	16ff\L	.	.
.	16ee-\	.	.
8B-J 8G/	16dd\	.	.
.	16cc\JJ	.	.
!LO:TX:t=P:problem:mixed beam	!	!	!
8BB-/L	16cc\LL	.	.
.	16b-\	.	.
8d\ 8B-\	16an\	.	.
.	16b-\	.	.
8B-\J 8A-\	16cc\	.	.
.	16dd\JJ	.	.
=165	=165	=165	=165
16BB-\LL	4.ff 4.b- 4.a-\	.	.
16B-\	.	.	.
16An\	.	.	.
16B-\	.	.	.
16c\	.	.	.
16d\JJ	.	.	.
8e- 8E-\	8ee- 8b- 8g\	.	.
8r	8r	.	.
8r	8r	.	.
=166	=166	=166	=166
!	!	!	!LO:DY:b:t=f
4.G 4.E- 4.BB- 4.EE-\	8ee- 8b- 8g 8e-\	.	f
.	16gg\LL	.	.
.	16ee-\	.	.
.	16b-\	.	.
.	16g\JJ	.	.
8G\L	4e- 4B-/	.	.
8E-\	.	.	.
8C\J	8en 8B-/	.	.
=167	=167	=167	=167
8FF\L	8fL 8An/	.	.
.	16qg\	.	.
8C\	16f/L	.	.
.	16en/	.	.
8A-J 8BB-\	16f 16d/	.	.
.	16g/JJ	.	.
8E-\L	8e 8G/	.	.
8BB-\	8r	.	.
8EE-\J	8r	.	.
!!LO:LB:g=original
=168	=168	=168	=168
!	!LO:TX:t=P:problem:cztery skreślone takty	!	!
4.E- 4.GG 4.CC\	8ccL 8g 8e- 8c\	.	.
.	16ee-\L	.	.
.	16cc\	.	.
.	16g\	.	.
.	16e-\JJ	.	.
8E-\L	4c 4G/	.	.
8C\	.	.	.
8AAn\J	8c#X 8G/	.	.
=169	=169	=169	=169
8DD\L	8dL 8F#X/	.	.
.	8qe-\	.	.
8AAn\	16d/L	.	.
.	16c#X/	.	.
8FJ 8GG\	16d 16Bn/	.	.
.	16e-/JJ	.	.
8C\L	8cn 8G/	.	.
8GG\	8r	.	.
8CC\J	8r	.	.
!!LO:LB:g=original
=170	=170	=170	=170
4.c 4.A- 4.E- 4.AA-\	8aa-L 8ee- 8cc 8a-\	.	.
.	16ccc\L	.	.
.	16aa-\	.	.
.	16ee-\	.	.
.	16cc\JJ	.	.
8c\L	4a- 4e-\	.	.
8A-\	.	.	.
8F\J	8an 8e-\	.	.
=171	=171	=171	=171
8BB-\L	8b-L 8d\	.	.
.	8qcc/	.	.
8F\	16b-\L	.	.
.	16an\	.	.
8d-XJ 8E-\	16b- 16g\	.	.
.	16cc\JJ	.	.
8A-\L	8aL 8c\	.	.
.	8qdn/	.	.
8AA-\	16c\L	.	.
.	16Bn\	.	.
8A-\J	16c\	.	.
.	16e-\JJ	.	.
=172	=172	=172	=172
8Bn\L	8ddL 8f\	.	.
.	8qee-/	.	.
8G\	16dd\L	.	.
.	16cc#X\	.	.
8B\J	16dd\	.	.
.	16ee-\JJ	.	.
8c\L	8cc#L 8e-\	.	.
.	8qf/	.	.
8C\	16e-\L	.	.
.	16d\	.	.
8c\J	16e-\	.	.
.	16g\JJ	.	.
=173	=173	=173	=173
8d\L	8ffL 8a-\	.	.
.	8qgg/	.	.
8B-\	16ff\L	.	.
.	16een\	.	.
8d\J	16ff\	.	.
.	16gg\JJ	.	.
8e-\L	8eeL 8g\	.	.
.	8qan/	.	.
8E-\	16g\L	.	.
.	16f#X\	.	.
8e-J 8F\	16g\	.	.
.	16an\JJ	.	.
=174	=174	=174	=174
8BB-\L	4dd 4b-\	.	.
8d 8B-\	.	.	.
8dJ 8B-\	[>8b-\	.	.
8dL 8B-\	16b-\LL]	.	.
.	16B-\	.	.
8d 8B-\	16d\	.	.
.	16f\	.	.
8dJ 8B-\	16b-\	.	.
.	16dd\JJ	.	.
*clefG2	*	*	*
=175	=175	=175	=175
8b-L 8en 8B-/	16cc\LL	.	.
.	16gg\	.	.
.	8qaan/	.	.
8b- 8e 8B-/	16gg\	.	.
.	16ff#X\	.	.
8b-J 8e 8B-/	16gg\	.	.
.	16ccc\JJ	.	.
8anL 8e-X 8B-/	16ffn\LL	.	.
.	16ccc\	.	.
.	8qddd/	.	.
8a 8e- 8B-/	16ccc\	.	.
.	16bbn\	.	.
8aJ 8e- 8B-/	16ccc\	.	.
.	16fff\JJ	.	.
!LO:CL:ed	!	!	!
*clefF4	*	*	*
!!LO:PB:g=original
=176	=176	=176	=176
8BB-\L	4bb-/	.	.
*clefG2	*	*	*
8b-\ 8d\ 8B-\	.	.	.
8b-\J 8d\ 8B-\	[>8bb-/	.	.
8b-\L 8d\ 8B-\	16bb-/LL]	.	.
.	16b-/	.	.
8dd\ 8b-\	16dd/	.	.
.	16ff/	.	.
8dd\J 8b-\	16bb-/	.	.
.	16ddd/JJ	.	.
=177	=177	=177	=177
*	*8va	*	*
8bb-L 8een 8b-\	16ccc\LL	.	.
.	16ggg\	.	.
.	8qaaan/	.	.
8bb- 8ee 8b-\	16ggg\	.	.
.	16fff#X\	.	.
8bb-J 8ee 8b-\	16ggg\	.	.
.	16cccc\JJ	.	.
8aanL 8ee-X 8b-\	16fffn\LL	.	.
.	16cccc\	.	.
.	8qdddd/	.	.
8aa 8ee- 8b-\	16cccc\	.	.
.	16bbbn\	.	.
8aaJ 8ee- 8b-\	16cccc\	.	.
.	16ffff\JJ	.	.
=178	=178	=178	=178
!LO:N:vis=4	!	!	!
4.bb- 4.dd 4.b-\	8bbb-\L	.	.
.	8qcccc/	.	.
.	16bbb-\L	.	.
.	16aaan\	.	.
.	16bbb-\	.	.
.	16bbbn\JJ	.	.
8r	16cccc\LL	.	.
.	16aaa-X\	.	.
.	8qggg/	.	.
8bb-L 8aa-\	16fff\	.	.
.	16eeen\	.	.
8dddJ 8bb-\	16fff\	.	.
.	16ggg\JJ	.	.
=179	=179	=179	=179
8r	16aaa-\LL	.	.
.	16fff\	.	.
.	8qeee-/	.	.
8aa-L 8ff\	16ddd\	.	.
.	16ccc#X\	.	.
8bb-J 8aa-\	16ddd\	.	.
.	16eee-\JJ	.	.
8r	16fff\LL	.	.
.	16ddd\	.	.
.	8qcccn/	.	.
8ffL 8dd\	16bb-\	.	.
.	16aan\	.	.
8aa-J 8ff\	16bb-\	.	.
.	16bbn\JJ	.	.
*	*X8va	*	*
=180	=180	=180	=180
8r	16ccc\LL	.	.
.	16aa-X\	.	.
.	8qgg/	.	.
8b-L 8a-/	16ff'>\	.	.
.	16een\	.	.
8ddJ 8b-/	16ff\	.	.
.	16gg\JJ	.	.
8r	16aa-\LL	.	.
.	16ff\	.	.
.	8qee-X/	.	.
8a-L 8f/	16dd\	.	.
.	16cc#X\	.	.
8b-J 8a-/	16dd\	.	.
.	16ee-X\JJ	.	.
!!LO:LB:g=original
=181	=181	=181	=181
*clefG2	*	*	*
8r	16ff\LL	.	.
.	16dd\	.	.
.	8qcc/	.	.
8fL 8d/	16b-\	.	.
.	16an\	.	.
8a-J 8f/	16b-\	.	.
.	16bn\JJ	.	.
8r	16cc\LL	.	.
.	16a-X\	.	.
.	8qg/	.	.
8B-L 8A-/	16f\	.	.
.	16en\	.	.
8dJ 8B-/	16f\	.	.
.	16g\JJ	.	.
*clefF4	*	*	*
=182	=182	=182	=182
16r	16a-\LL	.	.
16BB-\LL	16A-\	.	.
16F\	16d\	.	.
16A-\	16f\	.	.
16d\	16a-\	.	.
16f\JJ	16dd\JJ	.	.
*clefG2	*	*	*
16a-\LL	16ff\LL	.	.
16f\	16dd\	.	.
16a-\	16ff\	.	.
16dd\	16aa-\	.	.
16ff\	16ddd\	.	.
16aa-\JJ	16fff\JJ	.	.
=183	=183	=183	=183
8ff 8b-\	8aaa- 8ddd 8aa-\	.	.
8r	8r	.	.
8r	8r	.	.
4r	4b-\	.	.
8r	8gg\	.	.
*clefF4	*	*	*
=184	=184	=184	=184
!	!	!	!LO:DY:b:t=p
8G:L 8EE-:\	4.gg 4.b- 4.g\	.	p
8B-\	.	.	.
8e-\J	.	.	.
8A-\L	8ffL 8b-\	.	.
8B-\	8cc\	.	.
8f\J	8dd\J	.	.
=185	=185	=185	=185
!	!LO:N:n=2:vis=4	!	!
8GL 8E-\	4.ee- 4.b-\	.	.
8B-\	.	.	.
8e-\J	.	.	.
8G\L	8b-\L	.	.
8B-\	8ee-\	.	.
8e-\J	8gg\J	.	.
=186	=186	=186	=186
8FL 8BB-\	4bb- 4dd 4b-\	.	.
8B-\	.	.	.
8d\J	8bb-\	.	.
8G-X\L	8cccL 8ee-\	.	.
8c\	8gg\	.	.
8e-\J	8aan\J	.	.
!!LO:LB:g=original
=187	=187	=187	=187
8FL 8BB-\	4.bb- 4.dd\	.	.
8B-\	.	.	.
8d\J	.	.	.
8A-\L	16an\LL	.	.
.	16b-\	.	.
8B-\	16cc\	.	.
.	16dd\	.	.
8d\J	16ee-\	.	.
.	16ff\JJ	.	.
=188	=188	=188	=188
8GL 8EE-\	4gg 4b-\	.	.
8B-\	.	.	.
8e-\J	8gg\	.	.
8A-\L	8ffL 8b-\	.	.
8B-\	8cc\	.	.
8f\J	8dd\J	.	.
=189	=189	=189	=189
8GL 8E-\	4ee- 4b-\	.	.
8B-\	.	.	.
8e-\J	8ee-\	.	.
8FL 8GG\	8ddL 8g\	.	.
8G\	8an\	.	.
8Bn\J	8bn\J	.	.
=190	=190	=190	=190
8FL 8AA-\	8cc\L	.	.
8A-\	16bn\L	.	.
.	16cc\J	.	.
8c\J	8aa-\J	.	.
8A-L 8BB-\	4gg 4dd\	.	.
8B-\	.	.	.
8d\J	8ff\	.	.
=191	=191	=191	=191
4e- 4G 4E-\	16ee-\LL	.	.
.	16b-\	.	.
.	16cc\	.	.
.	16dd\	.	.
8r	16ee-\	.	.
.	16ff\JJ	.	.
4r	16gg\LL	.	.
.	16aa-\	.	.
.	16aan\	.	.
.	16bb-\	.	.
8r	16aa\	.	.
.	16bb-\JJ	.	.
=192	=192	=192	=192
4.g 4.B- 4.E-\	16gg\LL	.	.
.	16bb-\	.	.
.	16ccc\	.	.
.	16bb-\	.	.
.	16eee-\	.	.
.	16bb-\JJ	.	.
8fL 8B- 8E-\	16aa-\LL	.	.
.	16bb-\	.	.
8c\	16ccc\	.	.
.	16bb-\	.	.
8d\J	16fff\	.	.
.	16bb-\JJ	.	.
!!LO:LB:g=original
=193	=193	=193	=193
4.e- 4.G 4.E-\	16gg\LL	.	.
.	16bb-\	.	.
.	16ccc\	.	.
.	16bb-\	.	.
.	16eee-\	.	.
.	16bb-\JJ	.	.
8B-\L	16ggg\LL	.	.
.	16fff\	.	.
8e-\	16eee-\	.	.
.	16ddd\	.	.
8g\J	16ccc\	.	.
.	16bb-\JJ	.	.
=194	=194	=194	=194
*clefG2	*	*	*
4b- 4d 4B-/	16dd\LL	.	.
.	16ff\	.	.
.	16gg\	.	.
.	16ff\	.	.
8b-/	16bb-\	.	.
.	16ff\JJ	.	.
8ccL 8e- 8B-/	16ee-\LL	.	.
.	16ff\	.	.
8g/	16gg\	.	.
.	16ff\	.	.
8an/J	16ccc\	.	.
.	16ff\JJ	.	.
=195	=195	=195	=195
4.b- 4.d 4.B-/	16dd\LL	.	.
.	16ff\	.	.
.	16gg\	.	.
.	16ff\	.	.
.	16bb-\	.	.
.	16ff\JJ	.	.
16An/LL	16ddd\LL	.	.
16B-/	16ccc\	.	.
16c/	16bb-\	.	.
16d/	16aa-\	.	.
16e-/	16gg\	.	.
16f/JJ	16ff\JJ	.	.
=196	=196	=196	=196
*	*^	*	*
4g/	4.ee-/	16b-\LL	.	.
.	.	16bn\	.	.
.	.	16cc\	.	.
.	.	16b-X\	.	.
8g/	.	16an\	.	.
.	.	16b-\JJ	.	.
8f/L	16aa-/LL	4cc\	.	.
.	16gg/	.	.	.
8c/	16aa-/	.	.	.
.	16aan/	.	.	.
8d/J	16bb-/	8b-\	.	.
.	16aa-X/JJ	.	.	.
=197	=197	=197	=197	=197
16e-/LL	4gg/	4ee-\	.	.
16g/	.	.	.	.
16a-/	.	.	.	.
16an/	.	.	.	.
16b-/	8gg/	8ee-\	.	.
16cc/JJ	.	.	.	.
16dd/LL	8ff/L	8dd\L	.	.
16d/	.	.	.	.
16f/	8dd/	8an\	.	.
16f#X/	.	.	.	.
16g/	8gg/J	8bn\J	.	.
16fn/JJ	.	.	.	.
=198	=198	=198	=198	=198
16e-/LL	4ccc/	4cc\	.	.
16en/	.	.	.	.
16f/	.	.	.	.
16g/	.	.	.	.
16f/	8ccc/	8aa-\	.	.
16e-X/JJ	.	.	.	.
8d-X/L	8bb-/L	16ff\LL	.	.
.	.	16b-\	.	.
8B-/	8ff/	16dd-X\	.	.
.	.	16cc\	.	.
8e-/J	8gg/J	16b-\	.	.
.	.	16ee-\JJ	.	.
*clefF4	*	*	*	*
!!LO:LB:g=original
=199	=199	=199	=199	=199
4A-\	16aa-/LL	4.cc\	.	.
.	16ee-/	.	.	.
.	16ff/	.	.	.
.	16ee-/	.	.	.
8A-\	16dd/	.	.	.
.	16ee-/JJ	.	.	.
8G\L	8een/L	16b-\LL	.	.
.	.	16cc\	.	.
8Dn\	8ff/	16b-\	.	.
.	.	16a-\	.	.
8En\J	8gg/J	16g\	.	.
.	.	16cc\JJ	.	.
=200	=200	=200	=200	=200
16F\LL	4ff/	4a-\	.	.
16c\	.	.	.	.
16f\	.	.	.	.
16e-\	.	.	.	.
16d-X\	8raa	8a-\	.	.
16f\JJ	.	.	.	.
16g-X\LL	4bb-/	8g-X</L	.	.
16G-X\	.	.	.	.
16F\	.	8d-X</	.	.
16G-\	.	.	.	.
16Gn\	8bb-/	8e-</J	.	.
16E-\JJ	.	.	.	.
=201	=201	=201	=201	=201
!	!	!LO:TX:t=P:problem:mixed beam	!	!
8A-\L	8aa-/L	16f</LL	.	.
.	.	16a-\	.	.
8G-X\	8ee-/	16b-\	.	.
.	.	16cc\	.	.
8F\J	8ff/J	16dd-X\	.	.
.	.	16a-\JJ	.	.
4E-\	4.gg-X/	16b-\LL	.	.
.	.	16an\	.	.
.	.	16b-\	.	.
.	.	16bn\	.	.
8E-\	.	16cc\	.	.
.	.	16a-X\JJ	.	.
=202	=202	=202	=202	=202
8D-X\L	4ff/	16f\LL	.	.
.	.	16dd-X\	.	.
8AAn\	.	16ff\	.	.
.	.	16ee-\	.	.
8BB-\J	8ff/	16dd-\	.	.
.	.	16ddn\JJ	.	.
8C-X\L	8ee-/L	16ee-\LL	.	.
.	.	16e-\J	.	.
16D-\L	8b-/	8f\	.	.
16Dn\	.	.	.	.
16E-\	8cc-X/J	8g-X\J	.	.
16AA-X\JJ	.	.	.	.
=203	=203	=203	=203	=203
16D-X\LL	4b-/	8g-X\L	.	.
16E-\	.	.	.	.
16F\	.	8d-X\	.	.
16G-X\J	.	.	.	.
[>8C-X\J	16cc-X/LL	8e-\J	.	.
.	16a-/JJ	.	.	.
16C-\LL]	8dd-X/L	4.f\	.	.
16AA-\	.	.	.	.
16D-\	8a-/	.	.	.
16C-\	.	.	.	.
16D-\	8b-/J	.	.	.
16DD-X\JJ	.	.	.	.
*	*v	*v	*	*
=204	=204	=204	=204
8GG-X\L	4g-X 4B-/	.	.
8B- 8G-X\	.	.	.
8B-J 8G-\	[<8g-/	.	.
8B-L 8G-\	8g-/L]	.	.
8g-X 8d-X 8B- 8G-\	16b-/L	.	.
.	16dd/J	.	.
8g-J 8d- 8B- 8G-\	8gg-X/J	.	.
!!LO:PB:g=original
=205	=205	=205	=205
8fL 8c 8An 8G-X\	8ff\L	.	.
8f 8c 8A 8G-\	16gg-X\L	.	.
.	16ff\J	.	.
8fJ 8d 8B- 8A-X 8G-\	8b-\J	.	.
8e-L 8B- 8G-\	8ee-\L	.	.
8e- 8B- 8G-\	16ff\L	.	.
.	16ee-\J	.	.
8e-J 8c 8An 8G-\	8an\J	.	.
=206	=206	=206	=206
8D-X\L	8dd-X\L	.	.
8g-X 8d-X 8B-\	16cc\L	.	.
.	16dd-\	.	.
8g-J 8d- 8B-\	16gg-X\	.	.
.	16bb-\JJ	.	.
4.g- 4.d- 4.B-\	16eee-\LL	.	.
.	16ddd-X\	.	.
.	16ccc-X\	.	.
.	16bb-\	.	.
.	16aa-\	.	.
.	16gg-\JJ	.	.
=207	=207	=207	=207
8D-X\L	16ff\LL	.	.
.	16ee-\	.	.
8f 8d-X 8c-X\	16dd-X\	.	.
.	16cc-X\	.	.
8fJ 8d- 8c-\	16b-\	.	.
.	16a-\JJ	.	.
4.f 4.d- 4.c-\	16g-X\LL	.	.
.	16f\	.	.
.	16e-\	.	.
.	16d-X\	.	.
.	16e-\	.	.
.	16f\JJ	.	.
=208	=208	=208	=208
4G-X 4GG-X\	8g-X\L	.	.
.	8dd-X 8b-\	.	.
[<8G-\	8dd-J 8b-\	.	.
8G-\L]	8dd-L 8b-\	.	.
16B-\L	8dd- 8b-\	.	.
16d-X\J	.	.	.
8g-X\J	8dd-J 8b-\	.	.
=209	=209	=209	=209
8f\L	8ffL 8an\	.	.
16g-X\L	8ff 8a\	.	.
16f\J	.	.	.
8B-\J	8ddnJ 8a-X\	.	.
8e-\L	8ee-L 8gn\	.	.
16f\L	8ee- 8g\	.	.
16e-\J	.	.	.
8A-X\J	8ccJ 8g-X\	.	.
=210	=210	=210	=210
8d-XL 8D-X\	8dd-XL 8b- 8g-X\	.	.
8D-\	16cc\L	.	.
.	16dd-\	.	.
16G-X\L	16ee-\	.	.
16B-\JJ	16dd-\JJ	.	.
16e-\LL	8gg-X\L	.	.
16d-\	.	.	.
16c-X\	8b- 8g-\	.	.
16B-\	.	.	.
16A-\	8b-J 8g-\	.	.
16G-\JJ	.	.	.
!!LO:LB:g=original
=211	=211	=211	=211
16F\LL	8a-\L	.	.
16E-\	.	.	.
16D-X\	16a-L 16f\	.	.
16C-X\	16b-\	.	.
16BB-\	16cc-X 16f\	.	.
16AA-\JJ	16ccn\JJ	.	.
16GG-X\LL	8ddL 8f\	.	.
16FF\	.	.	.
16EE-\	8f 8c-X\	.	.
16DD-X\	.	.	.
16EE-\	8a-J 8c-\	.	.
16FF\JJ	.	.	.
=212	=212	=212	=212
8GG-XL 8GGG-X\	4g-X 4B-\	.	.
8B- 8G-X\	.	.	.
8B-J 8G-\	[<8g-\	.	.
8B-L 8G-\	8g-\L]	.	.
8c-X\	8a-\	.	.
8cn\J	8an\J	.	.
=213	=213	=213	=213
8d-X\L	8b- 8g-X\	.	.
8G-X\	8r	.	.
8G-\J	8r	.	.
8B-\L	8dd-X 8gn\	.	.
8E-\	8r	.	.
8E-\J	8r	.	.
=214	=214	=214	=214
8AA-\L	4a- 4c-X\	.	.
8c-X 8A-\	.	.	.
8c-J 8A-\	[<8a-\	.	.
8c-L 8A-\	8a-\L]	.	.
8d\	8an\	.	.
8dn\J	8b-\J	.	.
=215	=215	=215	=215
!	!LO:TX:b:t=cresc _:problem:dynamics with extention lines	!	!LO:HP:b:i:t=cresc:ext=ud
8e-\L	8cc-X 8a-\	.	<
8A-\	8r	.	.
8A-\J	8r	.	.
8cn\L	8ee- 8an\	.	.
8F\	8r	.	.
8F\J	8r	.	.
=216	=216	=216	=216
*^	*	*	*
8BB-\L	4.rEEyy	4b- 4d\	.	.
8d\ 8B-\	.	.	.	.
8d\J 8B-\	.	[<8b-\	.	.
8d/L	4.B-\	8b-\L]	.	.
8e-/	.	8cc\	.	.
8en/J	.	8cc#X\J	.	.
*v	*v	*	*	*
=217	=217	=217	=217
8fL 8B-\	4dd 4b-\	.	.
8B-\	.	.	.
8fJ 8B-\	[<8dd\	.	[
8fL 8B-\	8dd\L]	.	.
8g-X\	8ee-\	.	.
8gn\J	8een\J	.	.
!!LO:LB:g=original
=218	=218	=218	=218
4.a- 4.B-\	16ff\LL	.	.
.	16dd\	.	.
.	16bb-\	.	.
.	16fff\	.	.
.	16bb-\	.	.
.	16ff\JJ	.	.
4r	16dd\LL	.	.
.	16b-\	.	.
.	16ff\	.	.
.	16bb-\	.	.
8r	16ff\	.	.
.	16dd\JJ	.	.
=219	=219	=219	=219
2r	16b-\LL	.	.
.	16f\	.	.
.	16dd\	.	.
.	16ff\	.	.
.	16dd\	.	.
.	16b-\JJ	.	.
.	16f\LL	.	.
.	16d\	.	.
4r	16b-\	.	.
.	16dd\	.	.
.	16b-\	.	.
.	16f\JJ	.	.
=220	=220	=220	=220
!	!	!	!LO:DY:b:t=f
4.B- 4.BB-\	16d\LL	.	f
.	16a-\	.	.
.	16b-\	.	.
.	16b-\	.	.
.	16bb-\	.	.
.	16b-\JJ	.	.
*	*rep	*	*
16c\LL	16d\LL	.	.
16B-\	16a-\	.	.
16An\	16b-\	.	.
16B-\	16b-\	.	.
16c\	16bb-\	.	.
16d\JJ	16b-\JJ	.	.
*	*Xrep	*	*
=221	=221	=221	=221
4e- 4E-\	16e-\LL	.	.
.	16g\	.	.
.	16b-\	.	.
.	16b-\	.	.
8g\	16bb-\	.	.
.	16b-\JJ	.	.
*	*rep	*	*
4.B-\	16e-\LL	.	.
.	16g\	.	.
.	16b-\	.	.
.	16b-\	.	.
.	16bb-\	.	.
.	16b-\JJ	.	.
*	*Xrep	*	*
=222	=222	=222	=222
4c 4A-\	16e-\LL	.	.
.	16a-\	.	.
.	16cc\	.	.
.	16cc\	.	.
16Bn\LL	16ccc\	.	.
16c\JJ	16cc\JJ	.	.
16f\LL	16f\LL	.	.
16e-\	16a-\	.	.
16d\	16cc\	.	.
16c\	16cc\	.	.
16B\	16ccc\	.	.
16c\JJ	16cc\JJ	.	.
=223	=223	=223	=223
4.d 4.G\	16g\LL	.	.
.	16bn\	.	.
.	16dd\	.	.
.	16dd\	.	.
.	16ddd\	.	.
.	16dd\JJ	.	.
*	*rep	*	*
8G\	16g\LL	.	.
.	16bn\	.	.
8r	16dd\	.	.
.	16dd\	.	.
8r	16ddd\	.	.
.	16dd\JJ	.	.
*	*Xrep	*	*
!!LO:LB:g=original
=224	=224	=224	=224
8GL 8C\	16g\LL	.	.
.	16cc\	.	.
16F#X\L	16ee-\	.	.
16G\J	16ee-\	.	.
8c\J	16eee-\	.	.
.	16ee-\JJ	.	.
*	*rep	*	*
16Bn\LL	16g\LL	.	.
16c\	16cc\	.	.
16d\	16ee-\	.	.
16c\	16ee-\	.	.
16B\	16eee-\	.	.
16c\JJ	16ee-\JJ	.	.
*	*Xrep	*	*
=225	=225	=225	=225
8cL 8AA-\	16e-\LL	.	.
.	16a-\	.	.
16Bn\L	16cc\	.	.
16c\J	16cc\	.	.
8e-\J	16ccc\	.	.
.	16cc\JJ	.	.
*	*rep	*	*
16d\LL	16e-\LL	.	.
16e-\	16a-\	.	.
16f\	16cc\	.	.
16e-\	16cc\	.	.
16d\	16ccc\	.	.
16e-\JJ	16cc\JJ	.	.
*	*Xrep	*	*
=226	=226	=226	=226
16qBB-\	.	.	.
4.g\	16e-\LL	.	.
.	16g\	.	.
.	16b-\	.	.
.	16b-\	.	.
.	16bb-\	.	.
.	16b-\JJ	.	.
4.g-X\	16e-\LL	.	.
.	16an\	.	.
.	16cc-X\	.	.
.	16cc-\	.	.
.	16ccc\	.	.
.	16cc-\JJ	.	.
=227	=227	=227	=227
4.f 4.B-\	16e-\LL	.	.
.	16a-X\	.	.
.	16b-\	.	.
.	16b-\	.	.
.	16bb-\	.	.
.	16b-\JJ	.	.
4.B- 4.BB-\	16d\LL	.	.
.	16a-\	.	.
.	16b-\	.	.
.	16b-\	.	.
.	16bb-\	.	.
.	16b-\JJ	.	.
=228||	=228||	=228||	=228||
!	!LO:TX:t=P:problem:mixed beam	!	!
8E-L 8EE-\	8ee-\L 8e-\	.	.
!	!	!	!LO:DY:b:t=f
16D\L	16e-</ 16F#X<L	.	f
16E-\J	16G</J	.	.
8G\J	8e-</J 8B-</	.	.
16F#\LL	16e-<LL 16An</	.	.
16G\	16B-</	.	.
16A-X\	16c</	.	.
16G\	16B-</	.	.
16F#\	16A</	.	.
16G\JJ	16B-</JJ	.	.
!!LO:LB:g=original
=229	=229	=229	=229
8CC\L	8r	.	.
16F#XL 16E- 16C\	16gLL 16Bn/	.	.
16G\J	16c/J	.	.
8c\J	8gJ 8e-/	.	.
16Bn\LL	16gLL 16d/	.	.
16c\	16e-/	.	.
16d\	16f/	.	.
16c\	16e-/	.	.
16B\	16d/	.	.
16c\JJ	16e-/JJ	.	.
=230	=230	=230	=230
8FF\L	8r	.	.
8c-X 8A- 8F 8E-\	16a-\LL	.	.
.	16e-\	.	.
8c-J 8A- 8F 8E-\	16cc-X\	.	.
.	16e-\JJ	.	.
4.c- 4.A- 4.F 4.E-\	16ee-~>\LL	.	.
.	16e-\	.	.
.	16aa-\	.	.
.	16e-\	.	.
.	16ccc-X\	.	.
.	16e-\JJ	.	.
=231	=231	=231	=231
8BBB-\L	8r	.	.
8A- 8BB-\	16b-\LL	.	.
.	16a-\	.	.
8dJ 8A-\	16dd\	.	.
.	16a-\JJ	.	.
4.d 4.A- 4.BB-\	16ff\LL	.	.
.	16a-\	.	.
.	16bb-\	.	.
.	16a-\	.	.
.	16ddd\	.	.
.	16a-\JJ	.	.
=232	=232	=232	=232
8EE-\L	8eee-\L	.	.
*clefG2	*	*	*
16d\L	16ee-L 16f#X\	.	.
16e-\J	16gJ\	.	.
8g\J	8ee-J 8b-\	.	.
16f#X\LL	16ee-LL 16an\	.	.
16g\	16b-\	.	.
16a-\	16cc\	.	.
16g\	16b-\	.	.
16f#\	16a\	.	.
16g\JJ	16b-\JJ	.	.
*clefF4	*	*	*
=233	=233	=233	=233
8C\L	8r	.	.
*clefG2	*	*	*
16f#XL 16e- 16c\	16ggLL 16bn\	.	.
16g\J	16cc\J	.	.
8cc\J	8ggJ 8ee-\	.	.
16bn\LL	16ggLL 16dd\	.	.
16cc\	16ee-\	.	.
16dd\	16ff\	.	.
16cc\	16ee-\	.	.
16b\	16dd\	.	.
16cc\JJ	16ee-\JJ	.	.
!LO:CL:ed	!	!	!
*clefF4	*	*	*
!!LO:PB:g=original
=234	=234	=234	=234
8F\L	8r	.	.
*clefG2	*	*	*
8cc-X 8a- 8e-\	16aa-\LL	.	.
.	16ee-\	.	.
8cc-J 8a- 8e-\	16ccc-X\	.	.
.	16ee-\JJ	.	.
4.cc- 4.a- 4.e-\	16eee-\LL	.	.
.	16ee-\	.	.
.	16aaa-\	.	.
.	16ee-\	.	.
*	*8va	*	*
.	16cccc-X\	.	.
.	16eee-\JJ	.	.
*	*X8va	*	*
*clefF4	*	*	*
=235	=235	=235	=235
8BB-\L	8r	.	.
*clefG2	*	*	*
8a- 8B-\	16bb-\LL	.	.
.	16aa-\	.	.
8a-J 8B-\	16ddd\	.	.
.	16aa-\JJ	.	.
4.dd 4.a- 4.B-\	16fff\LL	.	.
.	16aa-\	.	.
.	16bbb-\	.	.
.	16aa-\	.	.
*	*8va	*	*
.	16dddd\	.	.
*	*X8va	*	*
.	16aa-\JJ	.	.
*clefF4	*	*	*
=236	=236	=236	=236
*	*8va	*	*
!	!	!	!LO:DY:b:t=p
4B- 4GG\	8eeee-\L	.	p
*	*X8va	*	*
.	8ee- 8b- 8e-\	.	.
16An\LL	8ee-J 8b- 8e-\	.	.
16B-\JJ	.	.	.
16e-\LL	8r	.	.
16d\	.	.	.
16c\	8ee-L 8b- 8e-\	.	.
16B-\	.	.	.
16A\	8ee-J 8b- 8e-\	.	.
16B-\JJ	.	.	.
=237	=237	=237	=237
*	*clefF4	*	*
!	!	!	!LO:DY:b:t=f
8r	4BB-\	.	f
8e-L 8d-X\	.	.	.
8e-J 8d-\	16AAn\LL	.	.
.	16BB-\JJ	.	.
8r	16E-\LL	.	.
.	16D-X\	.	.
8e-L 8d-\	16C\	.	.
.	16BB-\	.	.
8e-J 8d-\	16AA\	.	.
.	16BB-\JJ	.	.
=238	=238	=238	=238
*	*clefG2	*	*
!	!	!	!LO:DY:b:t=p
4c 4AA-\	8r	.	p
.	8ffL 8ee- 8f\	.	.
16Bn\LL	8ffJ 8ee- 8f\	.	.
16c\JJ	.	.	.
16f\LL	8r	.	.
16e-\	.	.	.
16d\	8ffL 8ee- 8f\	.	.
16c\	.	.	.
16B\	8ffJ 8ee- 8f\	.	.
16c\JJ	.	.	.
!!LO:LB:g=original
=239	=239	=239	=239
*	*clefF4	*	*
!	!	!	!LO:DY:b:t=f
8r	4C\	.	f
8fL 8e-\	.	.	.
8fJ 8e-\	16BBn\LL	.	.
.	16C\JJ	.	.
8r	16F\LL	.	.
.	16E-\	.	.
8fL 8e-\	16D\	.	.
.	16C\	.	.
8fJ 8e-\	16BB\	.	.
.	16C\JJ	.	.
=240	=240	=240	=240
*	*clefG2	*	*
!	!	!	!LO:DY:b:t=p
4d 4BB-\	8r	.	p
.	8ggL 8dd 8g\	.	.
16c#X\LL	8ggJ 8dd 8g\	.	.
16d\JJ	.	.	.
8BBn\L	16g\LL	.	.
.	16f\JJ	.	.
16e-\L	8ggL 8dd 8g\	.	.
16d\	.	.	.
16c#\	8ggJ 8dd 8g\	.	.
16d\JJ	.	.	.
=241	=241	=241	=241
8C\L	16f\LL	.	.
.	16e-\JJ	.	.
16d\L	8ggL 8ee- 8g\	.	.
16c\	.	.	.
16Bn\	8ggJ 8ee- 8g\	.	.
16c\JJ	.	.	.
8AA-\L	16d\LL	.	.
.	16c\JJ	.	.
16B\L	8ffL 8cc 8f\	.	.
16A-\	.	.	.
16G\	8ffJ 8cc 8f\	.	.
16A-\JJ	.	.	.
=242	=242	=242	=242
8BB-\L	16c/LL	.	.
.	16B-/JJ	.	.
16A-\L	8ee-L 8b- 8e-\	.	.
16G\	.	.	.
16e-\	8ee-J 8b- 8e-\	.	.
16G\JJ	.	.	.
8BB-\L	16c-X/LL	.	.
.	16B--/JJ	.	.
16A-\L	8ee-L 8b-- 8e-\	.	.
16G-X\	.	.	.
16e-\	8ee-J 8b-- 8e-\	.	.
16G-\JJ	.	.	.
=243	=243	=243	=243
8BB-\L	16B-/LL	.	.
.	16A-/JJ	.	.
16G\L	8ee-L 8a- 8e-\	.	.
16F\	.	.	.
16e-\	8ee-J 8a- 8e-\	.	.
16F\JJ	.	.	.
8BB-\L	16B-/LL	.	.
.	16A-/JJ	.	.
16G\L	8ddL 8a- 8d\	.	.
16F\	.	.	.
16d\	8ddJ 8a- 8d\	.	.
16F\JJ	.	.	.
!!LO:LB:g=original
=244	=244	=244	=244
!	!	!	!LO:DY:b:t=p
8GG\L	4b-\	.	p
8e- 8B- 8G\	.	.	.
8e-J 8B- 8G\	16an\LL	.	.
.	16b-\JJ	.	.
*tremolo	*	*	*
8e-L 8B- 8G\	16ee-\LL	.	.
.	16dd\	.	.
8e- 8B- 8G\	16cc\	.	.
.	16b-\	.	.
8e-J 8B- 8G\	16a\	.	.
.	16b-\JJ	.	.
*Xtremolo	*	*	*
=245	=245	=245	=245
!	!	!	!LO:DY:b:t=f
4BB-\	8r	.	f
.	8e-L 8d-X 8B-/	.	.
16AAn\LL	8e-J 8d- 8B-/	.	.
16BB-\JJ	.	.	.
16E-\LL	8e-L 8d- 8B-/	.	.
16D-X\	.	.	.
16C\	8e- 8d- 8B-/	.	.
16BB-\	.	.	.
16AA\	8e-J 8d- 8B-/	.	.
16BB-\JJ	.	.	.
=246	=246	=246	=246
!	!	!	!LO:DY:b:t=p
8AA-\L	4cc\	.	p
8f 8c 8A-\	.	.	.
8fJ 8c 8A-\	16bn\LL	.	.
.	16cc\JJ	.	.
*tremolo	*	*	*
8fL 8c 8A-\	16ff\LL	.	.
.	16ee-\	.	.
8f 8c 8A-\	16dd\	.	.
.	16cc\	.	.
8fJ 8c 8A-\	16b\	.	.
.	16cc\JJ	.	.
*Xtremolo	*	*	*
=247	=247	=247	=247
4C\	8r	.	.
!	!	!	!LO:DY:b:t=f
.	8fL 8e- 8An/	.	f
16BBn\LL	8fJ 8e- 8A/	.	.
16C\JJ	.	.	.
16F\LL	8fL 8e- 8A/	.	.
16E-\	.	.	.
16D\	8f 8e- 8A/	.	.
16C\	.	.	.
16BB\	8fJ 8e- 8A/	.	.
16C\JJ	.	.	.
=248	=248	=248	=248
!	!	!	!LO:DY:b:t=p
8BB-\L	4dd\	.	p
8g 8d 8B-\	.	.	.
8gJ 8d 8B-\	16cc#X\LL	.	.
.	16dd\JJ	.	.
8BBn\L	16gg\LL	.	.
.	16ff\	.	.
8f 8Bn 8G\	16ee-\	.	.
.	16dd\	.	.
8fJ 8B 8G\	16cc#\	.	.
.	16dd\JJ	.	.
!!LO:LB:g=original
=249	=249	=249	=249
8C\L	16ff\LL	.	.
.	16ee-\	.	.
8e- 8c 8G\	16dd\	.	.
.	16cc\	.	.
8e-J 8c 8G\	16bn\	.	.
.	16cc\JJ	.	.
8AA-\L	16dd\LL	.	.
.	16cc\	.	.
8a- 8e- 8c\	16b\	.	.
.	16cc\	.	.
8a-J 8e- 8c\	16eee- 16aa-\	.	.
.	16cc\JJ	.	.
=250	=250	=250	=250
8BB-\L	16cc\LL	.	.
.	16b-\	.	.
8g 8e- 8B- 8G\	16an\	.	.
.	16b-\	.	.
8gJ 8e- 8B- 8G\	16bb- 16ee-\	.	.
.	16b-\JJ	.	.
8r	16cc-X\LL	.	.
.	16b--\	.	.
8e-L 8B-- 8G-X\	16a\	.	.
.	16b--\	.	.
8e-J 8B-- 8G-\	16ccc-X 16ee-\	.	.
.	16a\JJ	.	.
=251	=251	=251	=251
8BB-\L	16b-X\LL	.	.
.	16a-\	.	.
8e- 8A- 8F\	16g\	.	.
.	16a-\	.	.
8e-J 8A- 8F\	16bb- 16ee-\	.	.
.	16a-\JJ	.	.
8BB-\L	16b-\LL	.	.
.	16a-\	.	.
8d 8A- 8F\	16g\	.	.
.	16a-\	.	.
8dJ 8A- 8F\	16bb- 16dd\	.	.
.	16a-\JJ	.	.
=252	=252	=252	=252
4E- 4EE-\	8ee-L 8g 8e-\	.	.
!	!	!	!LO:DY:b:t=p
.	8g 8e-\	.	p
[<8E-\	8gJ 8e-\	.	.
8E-\L]	8gL 8e-\	.	.
16G\L	8g 8e-\	.	.
16B-\J	.	.	.
8e-\J	8gJ 8e-\	.	.
=253	=253	=253	=253
8d\L	8anL 8f#X\	.	.
16e-\L	8a 8f#\	.	.
16d\J	.	.	.
8G\J	8bnJ 8fn\	.	.
8c\L	8ccL 8en\	.	.
16d\L	8cc 8e\	.	.
16c\J	.	.	.
8F\J	8ee-XJ 8a 8e-X\	.	.
!!LO:LB:g=original
=254	=254	=254	=254
4B- 4BB-\	8b-L 8g 8e-\	.	.
.	8gg 8ee-\	.	.
*clefG2	*	*	*
[<8B-/	8ggJ 8ee-\	.	.
8B-/L]	8ggL 8ee-\	.	.
16e-/L	8gg 8ee-\	.	.
16g/J	.	.	.
8b-/J	8ggJ 8ee-\	.	.
=255	=255	=255	=255
*	*tremolo	*	*
8an/L	8ffL 8ee-\	.	.
16b-/L	8ff 8ee-\	.	.
16a/J	.	.	.
8c/J	8ffJ 8ee-\	.	.
8a-X/L	8ffL 8dd\	.	.
16b-/L	8ff 8dd\	.	.
16a-/J	.	.	.
8B-/J	8ffJ 8dd\	.	.
*	*Xtremolo	*	*
=256	=256	=256	=256
8E-/L	4ee- 4g\	.	.
8g 8e-/	.	.	.
8gJ 8e-/	[<8ee-\	.	.
*tremolo	*	*	*
8gL 8e-/	8ee-\L]	.	.
8g 8e-/	16gg\L	.	.
.	16bb-\J	.	.
8gJ 8e-/	8eee-\J	.	.
*Xtremolo	*	*	*
=257	=257	=257	=257
8ccL 8d\	8dddL 8ff#X\	.	.
8cc 8d\	16eee-\L	.	.
.	16ddd\J	.	.
8bnJ 8g\	8ggJ 8ffn\	.	.
8b-XL 8c\	8cccL 8een\	.	.
8b- 8c\	16ddd\L	.	.
.	16ccc\J	.	.
8anJ 8f\	8ffJ 8ee-X\	.	.
=258	=258	=258	=258
8b-L 8B-\	4bb- 4gg 4ee-\	.	.
8ee- 8b- 8g\	.	.	.
8ee-J 8b- 8g\	[<8gg\	.	.
*tremolo	*	*	*
8ee-L 8b- 8g\	8gg\L]	.	.
8ee- 8b- 8g\	16bb-\L	.	.
.	16eee-\J	.	.
8ee-J 8b- 8g\	8ggg\J	.	.
*Xtremolo	*	*	*
!!LO:PB:g=original
=259	=259	=259	=259
*clefG2	*	*	*
4.ee-:\ 4.an:\ 4.f:\ 4.B-:\	8fffL 8aan\	.	.
.	16gggL	.	.
.	16fff\J	.	.
.	8ccc\J	.	.
4.dd\ 4.a-X\ 4.B-\	8fffL 8aa-X\	.	.
.	16ggg\L	.	.
.	16fff\J	.	.
.	8bb-\J	.	.
*clefF4	*	*	*
=260	=260	=260	=260
4.e- 4.G 4.E-\	4eee- 4gg\	.	.
.	[<8ee-\	.	.
4.An 4.C-X\	16ee-\LL]	.	.
.	16e-\	.	.
.	16g-X\	.	.
.	16an\	.	.
.	16ee-\	.	.
.	16gg-X\JJ	.	.
=261	=261	=261	=261
8BB-\L	16cc-X\LL	.	.
!	!LO:TX:b:t=cresc _:problem:dynamics with extention lines	!	!LO:HP:b:i:t=cresc:ext=u
.	16ff\	.	<
.	8qgg/	.	.
8e- 8A- 8F\	16ff\	.	.
.	16een\	.	.
8e-J 8A- 8F\	16ff\	.	.
.	16ccc-X\JJ	.	.
8BB-\L	16b-\LL	.	.
.	16ff\	.	.
.	8qgg/	.	.
8d 8A- 8F\	16ff\	.	.
.	16ee\	.	.
8dJ 8A- 8F\	16ff\	.	.
.	16bb-\JJ	.	.
=262	=262	=262	=262
4.e- 4.G 4.E-\	4eee- 4gg 4ee-\	.	.
.	[<8eee-\	.	.
4.c-X 4.G-X 4.E- 4.AAn\	16eee-\LL]	.	.
.	16ee-\	.	[[
.	16gg-X\	.	.
.	16ccc-X\	.	.
.	16eee-\	.	.
.	16ggg-X\JJ	.	.
=263	=263	=263	=263
8BB-\L	16ggn\LL	.	.
.	16eee-\	.	.
.	8qfff/	.	.
8e- 8G\	16eee-\	.	.
.	16ddd\	.	.
8e-J 8G\	16eee-\	.	.
.	16ggg\JJ	.	.
!LO:TX:t=P:problem:mixed beam	!	!	!
8BBB-/L	16fff\LL	.	.
.	16ddd\	.	.
.	8qeee-/	.	.
8d\ 8A-\	16ddd\	.	.
.	16ccc#X\	.	.
8d\J 8A-\	16ddd\	.	.
.	16aa-\JJ	.	.
!!LO:LB:g=original
=264	=264	=264	=264
!	!	!	!LO:DY:b:t=f
4.EE- 4.EEE-/	8eee- 8gg\	.	f
.	8qfff/	.	.
*	*8va	*	*
.	16eeee-\LL	.	.
.	16dddd\	.	.
.	16eeee-\	.	.
.	16ffff#X\JJ	.	.
*clefG2	*	*	*
8r	16gggg\LL	.	.
.	16eeee-\	.	.
.	8qcccc/	.	.
8eee-L 8bb- 8gg\	16bbb-\	.	.
.	16aaan\	.	.
8gggJ 8eee- 8bb-\	16bbb-\	.	.
.	16dddd\JJ	.	.
=265	=265	=265	=265
8r	16eeee-\LL	.	.
.	16bbb-\	.	.
.	8qaaa-/	.	.
8bb-L 8gg 8ee-\	16ggg\	.	.
.	16fff#X\	.	.
8eee-J 8bb- 8gg\	16ggg\	.	.
.	16aaa-\JJ	.	.
8r	16bbb-\LL	.	.
.	16ggg\	.	.
.	8qfffn/	.	.
8ggL 8ee- 8b-\	16eee-\	.	.
.	16ddd\	.	.
8bb-J 8gg 8ee-\	16eee-\	.	.
.	16fff#X\JJ	.	.
=266	=266	=266	=266
8r	16ggg\LL	.	.
.	16eee-\	.	.
.	8qccc/	.	.
8ee-L 8b- 8g\	16bb-\	.	.
.	16aan\	.	.
8ggJ 8ee- 8b-\	16bb-\	.	.
*	*X8va	*	*
.	16dd\JJ	.	.
8r	16eee-\LL	.	.
.	16bb-\	.	.
.	8qaany/	.	.
8b-L 8g 8e-\	16gg\	.	.
.	16ff#X\	.	.
8ee-J 8b- 8g\	16gg\	.	.
.	16aany\JJ	.	.
=267	=267	=267	=267
8r	16bb-\LL	.	.
.	16gg\	.	.
.	8qff/	.	.
8gL 8e- 8B-/	16ee-\	.	.
.	16dd\	.	.
8b-J 8g 8e-/	16ee-\	.	.
.	16ff#X\JJ	.	.
8r	16gg\LL	.	.
.	16ee-\	.	.
.	8qcc/	.	.
8e-L 8B- 8G/	16b-\	.	.
.	16an\	.	.
8gJ 8e- 8B-/	16b-\	.	.
.	16dd\JJ	.	.
!LO:CL:ed	!	!	!
*clefF4	*	*	*
!!LO:LB:g=original
=268	=268	=268	=268
!	!LO:TX:t=P:problem:mixed beam	!	!LO:DY:b:t=ff.
16r	16ee-\LL	.	ff
16EE-\LL	16E-/	.	.
16BB-\	16G/	.	.
16E-\	16B-/	.	.
16G\	16e-/	.	.
16B-\JJ	16g/JJ	.	.
*clefG2	*	*	*
16e-/LL	16b-\LL	.	.
16B-/	16g\	.	.
16e-/	16b-\	.	.
16g/	16ee-\	.	.
16b-/	16gg\	.	.
16ee-/JJ	16bb-\JJ	.	.
=269	=269	=269	=269
16gg/LL	16eee-\LL	.	.
16E-/	16e-\	.	.
16B-/	16g\	.	.
16e-/	16b-\	.	.
16g/	16ee-\	.	.
16b-/JJ	16gg\JJ	.	.
16ee-\LL	16bb-\LL	.	.
16b-\	16gg\	.	.
16ee-\	16bb-\	.	.
16gg\	16eee-\	.	.
16bb-\	16ggg\	.	.
*	*8va	*	*
16eee-\JJ	16bbb-\JJ	.	.
=270	=270	=270	=270
8ggg\	8eeee-\	.	.
*	*X8va	*	*
8r	8r	.	.
8r	8r	.	.
!LO:CL:ed	!	!	!
*clefF4	*	*	*
!LO:TX:t=P:problem:brak oznaczenia zmiany klucza	!	!	!
8e- 8B- 8E-\	8gg 8ee- 8b- 8g\	.	.
8r	8r	.	.
8r	8r	.	.
=271	=271	=271	=271
8qEE- 8qEEE-/	8qE-/	.	.
2.EE- 2.EEE-/	2.E-/	.	.
==	==	==	==
*-	*-	*-	*-
!!!system-decoration: {(s1,s2)}
!!!RDF**kern: | = vertical stroke
!!!RDF**kern: > = above
!!!RDF**kern: < = below
!!!RDF**kern: N = linked
!!!RDF**dynam: p = "p."
!!!RDF**dynam: f = "f."
!!!EED: Antoni Szymański
!!!EST: 2021-05-28
!!!ENC: Mateusz Solarz
!!!END: 2021-05-10
